; generated by PrusaSlicer 2.2.0 on 2020-08-28 at 13:39:53 UTC

; 

; external perimeters extrusion width = 0.25mm
; perimeters extrusion width = 0.25mm
; infill extrusion width = 0.25mm
; solid infill extrusion width = 0.25mm
; top infill extrusion width = 0.25mm
; first layer extrusion width = 0.30mm

M73 P0 R63
M73 Q0 S64
M201 X1000 Y1000 Z200 E5000 ; sets maximum accelerations, mm/sec^2
M203 X200 Y200 Z12 E120 ; sets maximum feedrates, mm/sec
M204 P1250 R1250 T1250 ; sets acceleration (P, T) and retract acceleration (R), mm/sec^2
M205 X8.00 Y8.00 Z0.40 E4.50 ; sets the jerk limits, mm/sec
M205 S0 T0 ; sets the minimum extruding and travel feed rate, mm/sec
M107
M862.3 P "MK3S" ; printer model check
M862.1 P0.25 ; nozzle diameter check
M115 U3.9.0 ; tell printer latest fw version
G90 ; use absolute coordinates
M83 ; extruder relative mode
M104 S215 ; set extruder temp
M140 S60 ; set bed temp
M190 S60 ; wait for bed temp
M109 S215 ; wait for extruder temp
G28 W ; home all without mesh bed level
G80 ; mesh bed leveling
G1 Y-3.0 F1000.0 ; go outside print area
G92 E0.0
G1 X60.0 E9.0 F1000.0 ; intro line
M73 Q0 S64
M73 P0 R63
G1 X100.0 E12.5 F1000.0 ; intro line
G92 E0.0
M221 S95
G21 ; set units to millimeters
G90 ; use absolute coordinates
M83 ; use relative distances for extrusion
M900 K0.06 ; Filament gcode LA 1.5
M900 K30 ; Filament gcode LA 1.0
;BEFORE_LAYER_CHANGE
G92 E0.0
;0.1


G1 E-0.80000 F2100.00000
G1 Z0.600 F10800.000
;AFTER_LAYER_CHANGE
;0.1
G1 X94.025 Y97.061
G1 Z0.100
G1 E0.80000 F2100.00000
M204 S500
G1 F1200.000
G1 X94.549 Y96.660 E0.00764
G1 X95.172 Y96.386 E0.00788
G1 X95.842 Y96.268 E0.00788
G1 X101.999 Y96.264 E0.07130
G1 X153.097 Y97.058 E0.59180
G1 X153.674 Y97.216 E0.00692
G1 X154.204 Y97.491 E0.00692
G1 X154.668 Y97.875 E0.00697
G1 X155.039 Y98.344 E0.00692
G1 X158.202 Y103.838 E0.07341
G1 X158.448 Y104.655 E0.00989
G1 X158.438 Y105.513 E0.00993
G1 X158.128 Y106.413 E0.01103
G1 X154.933 Y111.918 E0.07370
G1 X154.535 Y112.359 E0.00688
G1 X154.054 Y112.707 E0.00688
G1 X153.511 Y112.948 E0.00688
G1 X152.930 Y113.070 E0.00688
G1 X146.603 Y113.084 E0.07327
G1 X95.945 Y112.327 E0.58671
G1 X95.372 Y112.258 E0.00668
G1 X94.824 Y112.074 E0.00668
G1 X94.162 Y111.655 E0.00908
G1 X93.640 Y111.071 E0.00908
G1 X90.451 Y105.548 E0.07384
G1 X90.238 Y104.959 E0.00726
G1 X90.160 Y104.341 E0.00721
G1 X90.219 Y103.717 E0.00726
G1 X90.413 Y103.125 E0.00721
G1 X93.607 Y97.571 E0.07419
G1 X94.001 Y97.090 E0.00721
M204 S1000
G1 X94.215 Y97.265 F10800.000
M204 S500
G1 F1200.000
G1 X94.697 Y96.897 E0.00702
G1 X95.260 Y96.650 E0.00712
G1 X95.870 Y96.545 E0.00717
G1 X101.999 Y96.542 E0.07098
G1 X153.040 Y97.331 E0.59114
G1 X153.566 Y97.473 E0.00630
G1 X154.049 Y97.723 E0.00630
G1 X154.469 Y98.069 E0.00630
G1 X154.804 Y98.493 E0.00626
G1 X157.944 Y103.942 E0.07283
G1 X158.170 Y104.679 E0.00893
G1 X158.166 Y105.454 E0.00898
G1 X157.882 Y106.284 E0.01015
G1 X154.718 Y111.740 E0.07304
G1 X154.358 Y112.143 E0.00626
G1 X153.922 Y112.462 E0.00626
G1 X153.429 Y112.682 E0.00626
G1 X152.896 Y112.793 E0.00630
G1 X146.609 Y112.806 E0.07281
G1 X95.953 Y112.049 E0.58668
G1 X95.425 Y111.984 E0.00616
G1 X94.921 Y111.812 E0.00616
G1 X94.328 Y111.431 E0.00816
G1 X93.862 Y110.902 E0.00816
G1 X90.703 Y105.428 E0.07319
G1 X90.508 Y104.890 E0.00662
G1 X90.438 Y104.327 E0.00657
G1 X90.495 Y103.762 E0.00657
G1 X90.676 Y103.220 E0.00662
G1 X93.838 Y97.726 E0.07340
G1 X94.192 Y97.294 E0.00647
M204 S1000
G1 X94.406 Y97.468 F10800.000
M204 S500
G1 F1200.000
G1 X94.840 Y97.135 E0.00634
G1 X95.349 Y96.915 E0.00642
G1 X95.895 Y96.823 E0.00642
G1 X101.999 Y96.821 E0.07068
G1 X152.986 Y97.605 E0.59052
G1 X153.458 Y97.730 E0.00565
G1 X153.891 Y97.952 E0.00565
G1 X154.265 Y98.259 E0.00560
G1 X154.568 Y98.642 E0.00565
G1 X157.686 Y104.048 E0.07227
G1 X157.893 Y104.708 E0.00800
G1 X157.893 Y105.399 E0.00800
G1 X157.637 Y106.150 E0.00919
G1 X154.501 Y111.564 E0.07245
G1 X154.179 Y111.930 E0.00565
G1 X153.786 Y112.219 E0.00565
G1 X153.341 Y112.417 E0.00565
G1 X152.863 Y112.517 E0.00565
G1 X146.611 Y112.527 E0.07241
G1 X95.958 Y111.770 E0.58665
G1 X95.477 Y111.711 E0.00560
G1 X95.020 Y111.551 E0.00560
G1 X94.498 Y111.209 E0.00723
G1 X94.086 Y110.735 E0.00728
G1 X90.953 Y105.307 E0.07258
G1 X90.780 Y104.827 E0.00590
G1 X90.717 Y104.318 E0.00595
G1 X90.770 Y103.807 E0.00595
G1 X90.936 Y103.321 E0.00595
G1 X94.068 Y97.884 E0.07267
G1 X94.382 Y97.497 E0.00576
M204 S1000
G1 F8640.000
G1 X94.840 Y97.135 E-0.13477
G1 X95.349 Y96.915 E-0.12798
G1 X95.895 Y96.823 E-0.12798
G1 X97.495 Y96.823 E-0.36926
G1 E-0.04000 F2100.00000
G1 Z0.700 F10800.000
G1 X142.646 Y97.585
G1 Z0.100
G1 E0.80000 F2100.00000
M204 S500
G1 F1200.000
G1 X139.457 Y103.125 E0.07402
G1 X139.118 Y104.181 E0.01285
G1 X139.038 Y105.294 E0.01291
G1 X139.474 Y107.029 E0.02072
G1 X142.533 Y112.327 E0.07085
M204 S1000
G1 F8640.000
G1 X140.888 Y109.477 E-0.76000
G1 E-0.04000 F2100.00000
G1 Z0.700 F10800.000
G1 X143.132 Y113.172
G1 Z0.100
G1 E0.80000 F2100.00000
M204 S500
G1 F1200.000
G1 X143.684 Y113.780 E0.00951
G1 X144.714 Y114.432 E0.01411
G1 X146.269 Y114.845 E0.01864
G1 X153.012 Y114.845 E0.07809
G1 X154.735 Y114.355 E0.02074
G1 X155.685 Y113.704 E0.01333
G1 X156.454 Y112.836 E0.01343
G1 X159.823 Y106.981 E0.07823
G1 X160.163 Y105.924 E0.01285
G1 X160.243 Y104.812 E0.01291
G1 X159.805 Y103.074 E0.02075
G1 X156.261 Y97.015 E0.08129
G1 X155.155 Y95.994 E0.01743
G1 X154.118 Y95.495 E0.01333
G1 X153.027 Y95.266 E0.01290
M204 S1000
M204 S500
G1 X146.271 Y95.261 E0.07824
G1 X144.546 Y95.751 E0.02077
G1 X143.596 Y96.401 E0.01333
G1 X143.273 Y96.766 E0.00564
M204 S1000
G1 X143.635 Y96.772 F10800.000
M204 S500
G1 F1200.000
G1 X143.767 Y96.621 E0.00232
G1 X144.684 Y95.994 E0.01287
G1 X146.290 Y95.539 E0.01932
M204 S1000
M204 S500
G1 X153.012 Y95.544 E0.07785
G1 X154.043 Y95.763 E0.01220
G1 X155.014 Y96.235 E0.01250
G1 X156.056 Y97.205 E0.01648
G1 X159.555 Y103.198 E0.08036
G1 X159.964 Y104.815 E0.01932
G1 X159.892 Y105.855 E0.01207
G1 X159.563 Y106.882 E0.01248
G1 X156.219 Y112.685 E0.07756
G1 X155.514 Y113.484 E0.01235
G1 X154.597 Y114.112 E0.01287
G1 X152.993 Y114.566 E0.01930
G1 X146.288 Y114.566 E0.07765
G1 X144.807 Y114.168 E0.01775
G1 X143.850 Y113.556 E0.01316
G1 X143.507 Y113.177 E0.00591
M204 S1000
G1 F8640.000
G1 X143.850 Y113.556 E-0.11785
G1 X144.807 Y114.168 E-0.26246
G1 X146.288 Y114.566 E-0.35398
G1 X146.399 Y114.566 E-0.02572
G1 E-0.04000 F2100.00000
G1 Z0.700 F10800.000
G1 X142.858 Y112.332
G1 Z0.100
G1 E0.80000 F2100.00000
M204 S500
G1 F1200.000
G1 X139.725 Y106.906 E0.07255
G1 X139.317 Y105.291 E0.01930
G1 X139.389 Y104.250 E0.01207
G1 X139.718 Y103.224 E0.01248
G1 X142.964 Y97.590 E0.07530
M204 S1000
G1 X143.283 Y97.595 F10800.000
M204 S500
G1 F1200.000
G1 X139.978 Y103.324 E0.07659
G1 X139.665 Y104.287 E0.01172
G1 X139.596 Y105.287 E0.01162
G1 X139.976 Y106.783 E0.01787
G1 X143.182 Y112.337 E0.07426
M204 S1000
G1 F8640.000
G1 X141.536 Y109.486 E-0.76000
G1 E-0.04000 F2100.00000
G1 Z0.700 F10800.000
G1 X143.882 Y113.183
G1 Z0.100
G1 E0.80000 F2100.00000
M204 S500
G1 F1200.000
G1 X144.017 Y113.332 E0.00233
G1 X144.902 Y113.906 E0.01221
G1 X146.307 Y114.288 E0.01686
G1 X152.974 Y114.288 E0.07721
G1 X154.459 Y113.869 E0.01787
G1 X155.317 Y113.286 E0.01201
G1 X155.985 Y112.533 E0.01166
G1 X159.303 Y106.782 E0.07689
G1 X159.616 Y105.819 E0.01172
G1 X159.685 Y104.818 E0.01162
G1 X159.304 Y103.321 E0.01789
G1 X155.851 Y97.394 E0.07944
G1 X154.872 Y96.476 E0.01554
G1 X153.967 Y96.032 E0.01167
G1 X152.997 Y95.823 E0.01149
M204 S1000
M204 S500
G1 X146.309 Y95.818 E0.07745
G1 X144.822 Y96.237 E0.01789
G1 X144.025 Y96.778 E0.01115
M204 S1000
G1 X144.506 Y96.785 F10800.000
M204 S500
G1 F1200.000
G1 X144.959 Y96.480 E0.00632
G1 X146.328 Y96.096 E0.01647
M204 S1000
M204 S500
G1 X152.982 Y96.101 E0.07706
G1 X153.890 Y96.300 E0.01077
G1 X154.729 Y96.716 E0.01084
G1 X155.645 Y97.582 E0.01459
G1 X159.054 Y103.444 E0.07853
G1 X159.405 Y104.821 E0.01646
G1 X159.339 Y105.782 E0.01115
G1 X159.043 Y106.680 E0.01096
G1 X155.751 Y112.382 E0.07623
G1 X155.121 Y113.087 E0.01096
G1 X154.322 Y113.625 E0.01115
G1 X152.955 Y114.009 E0.01645
G1 X146.326 Y114.009 E0.07677
G1 X144.998 Y113.643 E0.01595
G1 X144.307 Y113.189 E0.00957
M204 S1000
G1 F8640.000
G1 X144.998 Y113.643 E-0.19085
G1 X146.326 Y114.009 E-0.31809
G1 X147.413 Y114.009 E-0.25107
G1 E-0.04000 F2100.00000
G1 Z0.700 F10800.000
G1 X143.507 Y112.342
G1 Z0.100
G1 E0.80000 F2100.00000
M204 S500
G1 F1200.000
G1 X140.227 Y106.661 E0.07597
G1 X139.876 Y105.284 E0.01645
G1 X139.942 Y104.324 E0.01115
G1 X140.238 Y103.425 E0.01096
G1 X143.530 Y97.724 E0.07623
G1 X143.640 Y97.600 E0.00192
M204 S1000
G1 X144.006 Y97.606 F10800.000
M204 S500
G1 F1200.000
G1 X143.764 Y97.876 E0.00421
G1 X140.487 Y103.552 E0.07589
G1 X140.212 Y104.393 E0.01025
G1 X140.155 Y105.280 E0.01029
G1 X140.477 Y106.538 E0.01504
G1 X143.764 Y112.230 E0.07611
G1 X143.869 Y112.347 E0.00183
M204 S1000
G1 F8640.000
G1 X143.764 Y112.230 E-0.03646
G1 X142.197 Y109.516 E-0.72354
G1 E-0.04000 F2100.00000
G1 Z0.700 F10800.000
G1 X144.818 Y113.197
G1 Z0.100
G1 E0.80000 F2100.00000
M204 S500
G1 F1200.000
G1 X145.094 Y113.381 E0.00384
G1 X146.345 Y113.731 E0.01504
G1 X152.936 Y113.731 E0.07633
G1 X154.186 Y113.381 E0.01504
G1 X154.926 Y112.888 E0.01029
G1 X155.517 Y112.230 E0.01025
G1 X158.794 Y106.554 E0.07589
G1 X159.069 Y105.713 E0.01025
G1 X159.126 Y104.826 E0.01029
G1 X158.803 Y103.568 E0.01504
G1 X155.438 Y97.770 E0.07764
G1 X154.586 Y96.955 E0.01365
G1 X153.813 Y96.568 E0.01001
G1 X152.966 Y96.380 E0.01004
M204 S1000
M204 S500
G1 X146.346 Y96.375 E0.07666
G1 X145.095 Y96.725 E0.01505
G1 X144.992 Y96.793 E0.00142
M204 S1000
G1 X145.818 Y96.806 F10800.000
M204 S500
G1 F1200.000
G1 X146.365 Y96.653 E0.00658
M204 S1000
M204 S500
G1 X152.950 Y96.658 E0.07626
G1 X153.734 Y96.836 E0.00931
G1 X154.440 Y97.194 E0.00917
G1 X155.230 Y97.956 E0.01271
G1 X158.553 Y103.691 E0.07675
G1 X158.847 Y104.831 E0.01364
G1 X158.798 Y105.645 E0.00944
G1 X158.545 Y106.428 E0.00953
G1 X155.284 Y112.077 E0.07555
G1 X154.732 Y112.688 E0.00953
G1 X154.052 Y113.136 E0.00944
G1 X152.917 Y113.452 E0.01364
G1 X146.364 Y113.452 E0.07589
G1 X145.482 Y113.207 E0.01059
M204 S1000
G1 F8640.000
G1 X146.364 Y113.452 E-0.21121
G1 X148.740 Y113.452 E-0.54879
G1 E-0.04000 F2100.00000
G1 Z0.700 F10800.000
G1 X144.246 Y112.353
G1 Z0.100
G1 E0.80000 F2100.00000
M204 S500
G1 F1200.000
G1 X143.997 Y112.077 E0.00430
G1 X140.728 Y106.415 E0.07572
G1 X140.434 Y105.274 E0.01364
G1 X140.483 Y104.461 E0.00944
G1 X140.735 Y103.678 E0.00953
G1 X143.997 Y98.028 E0.07555
G1 X144.374 Y97.611 E0.00651
M204 S1000
G1 F8640.000
G1 X143.997 Y98.028 E-0.12976
G1 X142.633 Y100.392 E-0.63024
G1 E-0.04000 F2100.00000
G1 Z0.700 F10800.000
G1 X144.621 Y112.358
G1 Z0.100
G1 E0.80000 F2100.00000
M204 S500
G1 F1200.000
G1 X144.231 Y111.925 E0.00675
G1 X140.979 Y106.292 E0.07533
G1 X140.714 Y105.269 E0.01223
G1 X140.760 Y104.495 E0.00897
G1 X140.984 Y103.805 E0.00841
G1 X144.231 Y98.180 E0.07521
G1 X144.753 Y97.617 E0.00889
M204 S1000
G1 F8640.000
G1 X144.231 Y98.180 E-0.17719
G1 X142.969 Y100.366 E-0.58281
G1 E-0.04000 F2100.00000
G1 Z0.700 F10800.000
G1 X145.066 Y112.365
G1 Z0.100
G1 E0.80000 F2100.00000
M204 S500
G1 F1200.000
G1 X144.911 Y112.264 E0.00214
G1 X144.465 Y111.773 E0.00768
G1 X141.229 Y106.169 E0.07494
G1 X140.993 Y105.262 E0.01085
G1 X141.031 Y104.563 E0.00811
G1 X141.233 Y103.931 E0.00768
G1 X144.465 Y98.333 E0.07486
G1 X144.911 Y97.842 E0.00768
G1 X145.244 Y97.625 E0.00460
M204 S1000
G1 F8640.000
G1 X144.911 Y97.842 E-0.09166
G1 X144.465 Y98.333 E-0.15320
G1 X143.349 Y100.265 E-0.51514
G1 E-0.04000 F2100.00000
G1 Z0.700 F10800.000
G1 X145.587 Y112.373
G1 Z0.100
G1 E0.80000 F2100.00000
M204 S500
G1 F1200.000
G1 X145.104 Y112.062 E0.00665
G1 X144.698 Y111.620 E0.00694
G1 X141.480 Y106.045 E0.07455
G1 X141.272 Y105.254 E0.00948
G1 X141.302 Y104.628 E0.00725
G1 X141.482 Y104.057 E0.00694
G1 X144.698 Y98.485 E0.07450
G1 X145.104 Y98.044 E0.00694
G1 X145.630 Y97.705 E0.00725
G1 X145.887 Y97.635 E0.00309
M204 S1000
G1 X145.761 Y97.952 F10800.000
M204 S500
G1 F1200.000
G1 X146.439 Y97.768 E0.00813
G1 X152.884 Y97.772 E0.07464
G1 X153.378 Y97.893 E0.00588
G1 X153.852 Y98.143 E0.00621
G1 X154.348 Y98.637 E0.00811
G1 X157.551 Y104.184 E0.07417
G1 X157.730 Y104.862 E0.00812
G1 X157.707 Y105.413 E0.00639
G1 X157.550 Y105.924 E0.00619
G1 X154.349 Y111.467 E0.07413
G1 X153.986 Y111.859 E0.00619
G1 X153.520 Y112.154 E0.00639
G1 X152.843 Y112.338 E0.00812
G1 X146.438 Y112.338 E0.07417
G1 X145.761 Y112.154 E0.00812
G1 X145.295 Y111.859 E0.00639
G1 X144.932 Y111.467 E0.00619
G1 X141.730 Y105.922 E0.07415
G1 X141.551 Y105.244 E0.00812
G1 X141.574 Y104.692 E0.00639
G1 X141.731 Y104.182 E0.00619
G1 X144.932 Y98.639 E0.07413
G1 X145.295 Y98.247 E0.00619
G1 X145.729 Y97.972 E0.00595
M204 S1000
G1 X145.876 Y98.208 F10800.000
M204 S500
G1 F1200.000
G1 X146.457 Y98.046 E0.00698
G1 X152.867 Y98.051 E0.07423
G1 X153.292 Y98.158 E0.00509
G1 X153.701 Y98.379 E0.00538
G1 X154.116 Y98.792 E0.00678
G1 X157.300 Y104.307 E0.07375
G1 X157.451 Y104.874 E0.00679
G1 X157.435 Y105.351 E0.00553
G1 X157.300 Y105.799 E0.00541
G1 X154.116 Y111.313 E0.07374
G1 X153.796 Y111.654 E0.00541
G1 X153.391 Y111.906 E0.00553
G1 X152.825 Y112.059 E0.00679
G1 X146.456 Y112.059 E0.07375
G1 X145.890 Y111.906 E0.00679
G1 X145.485 Y111.654 E0.00553
G1 X145.164 Y111.313 E0.00541
G1 X141.980 Y105.799 E0.07374
G1 X141.830 Y105.232 E0.00679
G1 X141.846 Y104.754 E0.00553
G1 X141.981 Y104.307 E0.00541
G1 X145.164 Y98.792 E0.07374
G1 X145.485 Y98.451 E0.00541
G1 X145.844 Y98.228 E0.00491
M204 S1000
G1 X146.017 Y98.448 F10800.000
M204 S500
G1 F1200.000
G1 X146.475 Y98.325 E0.00549
G1 X152.848 Y98.330 E0.07380
G1 X153.204 Y98.423 E0.00426
G1 X153.549 Y98.613 E0.00456
G1 X153.884 Y98.947 E0.00548
G1 X157.050 Y104.431 E0.07333
G1 X157.172 Y104.888 E0.00548
G1 X157.163 Y105.292 E0.00468
G1 X157.051 Y105.674 E0.00462
G1 X153.884 Y111.159 E0.07334
G1 X153.608 Y111.448 E0.00462
G1 X153.263 Y111.658 E0.00468
G1 X152.806 Y111.781 E0.00548
G1 X146.474 Y111.781 E0.07333
G1 X146.017 Y111.658 E0.00548
G1 X145.673 Y111.448 E0.00468
G1 X145.397 Y111.159 E0.00462
G1 X142.231 Y105.675 E0.07333
G1 X142.109 Y105.218 E0.00548
G1 X142.118 Y104.814 E0.00468
G1 X142.230 Y104.431 E0.00462
G1 X145.397 Y98.946 E0.07334
G1 X145.673 Y98.658 E0.00462
G1 X145.985 Y98.467 E0.00424
M204 S1000
G1 X146.127 Y98.706 F10800.000
M204 S500
G1 F1200.000
G1 X146.493 Y98.603 E0.00440
G1 X152.828 Y98.608 E0.07336
M73 Q1 S63
G1 X153.112 Y98.686 E0.00341
G1 X153.396 Y98.846 E0.00376
G1 X153.652 Y99.102 E0.00420
G1 X156.800 Y104.554 E0.07290
G1 X156.894 Y104.904 E0.00420
G1 X156.889 Y105.235 E0.00383
G1 X156.800 Y105.551 E0.00380
M73 P1 R62
G1 X153.652 Y111.004 E0.07293
G1 X153.423 Y111.239 E0.00380
G1 X153.138 Y111.409 E0.00383
G1 X152.788 Y111.502 E0.00420
G1 X146.493 Y111.502 E0.07290
G1 X146.143 Y111.409 E0.00420
G1 X145.858 Y111.239 E0.00383
G1 X145.629 Y111.004 E0.00380
G1 X142.481 Y105.552 E0.07291
G1 X142.387 Y105.201 E0.00420
G1 X142.392 Y104.871 E0.00383
G1 X142.481 Y104.555 E0.00380
G1 X145.629 Y99.101 E0.07293
G1 X145.858 Y98.866 E0.00380
G1 X146.095 Y98.725 E0.00319
M204 S1000
G1 X146.265 Y98.948 F10800.000
M204 S500
G1 F1200.000
G1 X146.511 Y98.882 E0.00295
G1 X152.807 Y98.887 E0.07291
G1 X153.016 Y98.948 E0.00253
G1 X153.240 Y99.077 E0.00299
G1 X153.420 Y99.257 E0.00295
G1 X156.549 Y104.678 E0.07248
G1 X156.615 Y104.923 E0.00295
G1 X156.615 Y105.182 E0.00300
G1 X156.549 Y105.428 E0.00295
G1 X153.420 Y110.849 E0.07248
G1 X153.240 Y111.029 E0.00295
G1 X153.016 Y111.158 E0.00300
G1 X152.770 Y111.224 E0.00295
G1 X146.511 Y111.224 E0.07248
G1 X146.265 Y111.158 E0.00295
G1 X146.041 Y111.029 E0.00300
G1 X145.861 Y110.849 E0.00295
G1 X142.731 Y105.428 E0.07248
G1 X142.666 Y105.182 E0.00295
G1 X142.666 Y104.923 E0.00300
G1 X142.731 Y104.678 E0.00295
G1 X145.861 Y99.257 E0.07248
G1 X146.041 Y99.077 E0.00295
G1 X146.233 Y98.966 E0.00256
M204 S1000
G1 F8640.000
G1 X146.511 Y98.882 E-0.06719
G1 X149.511 Y98.884 E-0.69281
G1 E-0.04000 F2100.00000
