; generated by PrusaSlicer 2.2.0 on 2020-09-10 at 22:20:26 UTC

; 

; external perimeters extrusion width = 0.25mm
; perimeters extrusion width = 0.25mm
; infill extrusion width = 0.25mm
; solid infill extrusion width = 0.25mm
; top infill extrusion width = 0.25mm
; first layer extrusion width = 0.30mm

M73 P0 R90
M73 Q0 S91
M201 X1000 Y1000 Z200 E5000 ; sets maximum accelerations, mm/sec^2
M203 X200 Y200 Z12 E120 ; sets maximum feedrates, mm/sec
M204 P1250 R1250 T1250 ; sets acceleration (P, T) and retract acceleration (R), mm/sec^2
M205 X8.00 Y8.00 Z0.40 E4.50 ; sets the jerk limits, mm/sec
M205 S0 T0 ; sets the minimum extruding and travel feed rate, mm/sec
M107
M862.3 P "MK3S" ; printer model check
M862.1 P0.25 ; nozzle diameter check
M115 U3.9.0 ; tell printer latest fw version
G90 ; use absolute coordinates
M83 ; extruder relative mode
M104 S215 ; set extruder temp
M140 S60 ; set bed temp
M190 S60 ; wait for bed temp
M109 S215 ; wait for extruder temp
G28 W ; home all without mesh bed level
G80 ; mesh bed leveling
G1 Y-3.0 F1000.0 ; go outside print area
G92 E0.0
G1 X60.0 E9.0 F1000.0 ; intro line
M73 Q0 S91
M73 P0 R90
G1 X100.0 E12.5 F1000.0 ; intro line
G92 E0.0
M221 S95
G21 ; set units to millimeters
G90 ; use absolute coordinates
M83 ; use relative distances for extrusion
M900 K0.06 ; Filament gcode LA 1.5
M900 K30 ; Filament gcode LA 1.0
;BEFORE_LAYER_CHANGE
G92 E0.0
;0.1


G1 E-0.80000 F2100.00000
G1 Z0.600 F10800.000
;AFTER_LAYER_CHANGE
;0.1
G1 X86.990 Y96.427
G1 Z0.100
G1 E0.80000 F2100.00000
M204 S500
G1 F1200.000
G1 X87.475 Y96.062 E0.00703
G1 X88.036 Y95.821 E0.00707
G1 X88.635 Y95.721 E0.00703
G1 X94.761 Y95.718 E0.07094
G1 X153.369 Y96.971 E0.67886
G1 X153.900 Y97.108 E0.00635
G1 X154.386 Y97.353 E0.00630
G1 X154.811 Y97.699 E0.00635
G1 X155.153 Y98.127 E0.00635
G1 X158.296 Y103.578 E0.07287
G1 X158.524 Y104.307 E0.00884
G1 X158.527 Y105.067 E0.00880
G1 X158.240 Y105.924 E0.01047
G1 X155.060 Y111.403 E0.07336
G1 X132.831 Y140.225 E0.42151
G1 X132.093 Y140.767 E0.01060
G1 X131.212 Y141.014 E0.01060
G1 X124.602 Y140.999 E0.07654
G1 X123.943 Y140.810 E0.00794
G1 X123.359 Y140.452 E0.00794
G1 X87.126 Y110.637 E0.54338
G1 X86.621 Y110.074 E0.00875
G1 X83.376 Y104.405 E0.07565
G1 X83.229 Y103.856 E0.00657
G1 X83.206 Y103.289 E0.00657
G1 X83.309 Y102.731 E0.00657
G1 X83.533 Y102.209 E0.00657
G1 X86.604 Y96.895 E0.07107
G1 X86.966 Y96.456 E0.00659
M204 S1000
G1 X87.180 Y96.631 F10800.000
M204 S500
G1 F1200.000
G1 X87.618 Y96.302 E0.00635
G1 X88.121 Y96.087 E0.00633
G1 X88.660 Y95.999 E0.00633
G1 X94.760 Y95.996 E0.07064
G1 X153.316 Y97.244 E0.67825
G1 X153.792 Y97.365 E0.00569
G1 X154.231 Y97.585 E0.00569
G1 X154.613 Y97.894 E0.00569
G1 X154.920 Y98.278 E0.00569
G1 X158.039 Y103.685 E0.07229
G1 X158.246 Y104.333 E0.00787
G1 X158.253 Y105.016 E0.00792
G1 X157.994 Y105.794 E0.00949
G1 X154.836 Y111.238 E0.07288
G1 X132.632 Y140.030 E0.42105
G1 X131.965 Y140.519 E0.00958
G1 X131.168 Y140.739 E0.00958
G1 X124.652 Y140.725 E0.07545
G1 X124.059 Y140.556 E0.00715
G1 X123.532 Y140.234 E0.00715
G1 X87.306 Y110.424 E0.54328
G1 X86.862 Y109.934 E0.00766
G1 X83.646 Y104.329 E0.07483
G1 X83.508 Y103.838 E0.00590
G1 X83.483 Y103.326 E0.00595
G1 X83.573 Y102.820 E0.00595
G1 X83.774 Y102.348 E0.00595
G1 X86.834 Y97.053 E0.07081
G1 X87.156 Y96.660 E0.00588
M204 S1000
G1 F8640.000
G1 X87.618 Y96.302 E-0.13497
G1 X88.121 Y96.087 E-0.12627
G1 X88.660 Y95.999 E-0.12627
G1 X90.274 Y95.998 E-0.37248
G1 E-0.04000 F2100.00000
G1 Z0.700 F10800.000
G1 X143.039 Y97.165
G1 Z0.100
G1 E0.80000 F2100.00000
M204 S500
G1 F1200.000
G1 X139.814 Y102.768 E0.07487
G1 X139.474 Y103.825 E0.01285
G1 X139.394 Y104.937 E0.01291
G1 X139.831 Y106.672 E0.02072
G1 X143.184 Y112.481 E0.07767
G1 X144.040 Y113.424 E0.01475
G1 X145.070 Y114.075 E0.01411
G1 X146.626 Y114.489 E0.01864
G1 X152.153 Y114.489 E0.06401
M204 S1000
G1 X152.856 Y114.489 F10800.000
M204 S500
G1 F1200.000
G1 X153.369 Y114.489 E0.00593
G1 X155.091 Y113.998 E0.02074
G1 X156.042 Y113.348 E0.01333
G1 X156.810 Y112.480 E0.01343
G1 X160.180 Y106.625 E0.07823
G1 X160.519 Y105.568 E0.01285
G1 X160.600 Y104.456 E0.01291
G1 X160.161 Y102.718 E0.02075
G1 X156.617 Y96.659 E0.08129
G1 X155.511 Y95.638 E0.01743
G1 X154.474 Y95.138 E0.01333
G1 X153.384 Y94.909 E0.01290
M204 S1000
M204 S500
G1 X146.627 Y94.904 E0.07824
G1 X144.902 Y95.395 E0.02077
G1 X143.952 Y96.045 E0.01333
G1 X143.444 Y96.619 E0.00888
M204 S1000
G1 X143.804 Y96.627 F10800.000
M204 S500
G1 F1200.000
G1 X144.124 Y96.265 E0.00559
G1 X145.041 Y95.637 E0.01287
G1 X146.646 Y95.183 E0.01932
M204 S1000
M204 S500
G1 X153.369 Y95.188 E0.07785
G1 X154.399 Y95.407 E0.01220
G1 X155.370 Y95.879 E0.01250
G1 X156.413 Y96.848 E0.01648
G1 X159.911 Y102.841 E0.08036
G1 X160.320 Y104.459 E0.01932
G1 X160.249 Y105.499 E0.01207
G1 X159.919 Y106.525 E0.01248
G1 X156.576 Y112.329 E0.07756
G1 X155.870 Y113.128 E0.01235
G1 X154.953 Y113.756 E0.01287
G1 X153.349 Y114.210 E0.01930
G1 X153.071 Y114.210 E0.00322
M204 S1000
G1 X152.368 Y114.210 F10800.000
M204 S500
G1 F1200.000
G1 X146.644 Y114.210 E0.06628
G1 X145.164 Y113.812 E0.01775
G1 X144.206 Y113.199 E0.01316
G1 X143.418 Y112.329 E0.01360
G1 X140.081 Y106.550 E0.07728
G1 X139.673 Y104.934 E0.01930
G1 X139.745 Y103.894 E0.01207
G1 X140.074 Y102.867 E0.01248
G1 X143.356 Y97.171 E0.07613
M204 S1000
G1 X143.685 Y97.178 F10800.000
M204 S500
G1 F1200.000
G1 X140.335 Y102.968 E0.07746
G1 X140.022 Y103.930 E0.01172
G1 X139.953 Y104.931 E0.01162
G1 X140.332 Y106.427 E0.01787
G1 X143.652 Y112.177 E0.07688
G1 X144.373 Y112.976 E0.01247
G1 X145.258 Y113.549 E0.01221
G1 X146.663 Y113.931 E0.01686
G1 X152.583 Y113.931 E0.06855
M204 S1000
G1 X153.286 Y113.931 F10800.000
M204 S500
G1 F1200.000
G1 X154.815 Y113.512 E0.01836
G1 X155.673 Y112.930 E0.01201
G1 X156.341 Y112.177 E0.01166
G1 X159.659 Y106.425 E0.07689
G1 X159.972 Y105.462 E0.01172
G1 X160.041 Y104.462 E0.01162
G1 X159.661 Y102.965 E0.01789
G1 X156.207 Y97.037 E0.07944
G1 X155.229 Y96.120 E0.01554
G1 X154.324 Y95.676 E0.01167
G1 X153.354 Y95.466 E0.01149
M204 S1000
M204 S500
G1 X146.665 Y95.461 E0.07745
G1 X145.178 Y95.881 E0.01789
G1 X144.320 Y96.463 E0.01201
G1 X144.168 Y96.635 E0.00265
M204 S1000
G1 X144.545 Y96.643 F10800.000
M204 S500
G1 F1200.000
G1 X145.315 Y96.124 E0.01075
G1 X146.684 Y95.740 E0.01647
M204 S1000
M204 S500
G1 X153.338 Y95.745 E0.07706
G1 X154.247 Y95.944 E0.01077
G1 X155.086 Y96.360 E0.01084
G1 X156.001 Y97.226 E0.01459
G1 X159.410 Y103.088 E0.07853
G1 X159.761 Y104.465 E0.01646
G1 X159.695 Y105.426 E0.01115
G1 X159.399 Y106.324 E0.01096
G1 X156.108 Y112.025 E0.07623
G1 X155.478 Y112.731 E0.01096
G1 X154.679 Y113.269 E0.01115
G1 X153.553 Y113.585 E0.01354
M204 S1000
G1 X152.797 Y113.653 F10800.000
M204 S500
G1 F1200.000
G1 X146.682 Y113.653 E0.07082
G1 X145.354 Y113.287 E0.01595
G1 X144.542 Y112.753 E0.01125
G1 X143.886 Y112.025 E0.01135
G1 X140.583 Y106.304 E0.07650
G1 X140.232 Y104.928 E0.01645
G1 X140.298 Y103.967 E0.01115
G1 X140.595 Y103.069 E0.01096
G1 X143.886 Y97.368 E0.07623
G1 X144.048 Y97.186 E0.00282
M204 S1000
G1 X144.413 Y97.194 F10800.000
M204 S500
G1 F1200.000
G1 X144.120 Y97.520 E0.00507
G1 X140.843 Y103.195 E0.07589
G1 X140.569 Y104.037 E0.01025
G1 X140.511 Y104.924 E0.01029
G1 X140.834 Y106.181 E0.01504
G1 X144.120 Y111.873 E0.07611
G1 X144.711 Y112.532 E0.01025
G1 X145.451 Y113.025 E0.01029
G1 X146.701 Y113.374 E0.01504
G1 X153.012 Y113.374 E0.07308
M204 S1000
G1 X153.832 Y113.223 F10800.000
M204 S500
G1 F1200.000
G1 X154.543 Y113.025 E0.00855
G1 X155.282 Y112.532 E0.01029
G1 X155.874 Y111.873 E0.01025
G1 X159.150 Y106.198 E0.07589
G1 X159.425 Y105.356 E0.01025
G1 X159.482 Y104.469 E0.01029
G1 X159.160 Y103.211 E0.01504
G1 X155.794 Y97.413 E0.07764
G1 X154.942 Y96.599 E0.01365
G1 X154.169 Y96.212 E0.01001
G1 X153.323 Y96.023 E0.01004
M204 S1000
M204 S500
G1 X146.703 Y96.018 E0.07666
G1 X145.451 Y96.368 E0.01505
G1 X145.024 Y96.653 E0.00594
M204 S1000
G1 X145.509 Y96.663 F10800.000
M204 S500
G1 F1200.000
G1 X145.586 Y96.613 E0.00106
G1 X146.721 Y96.297 E0.01365
M204 S1000
M204 S500
G1 X153.307 Y96.302 E0.07626
G1 X154.090 Y96.480 E0.00931
G1 X154.797 Y96.838 E0.00917
G1 X155.586 Y97.600 E0.01271
G1 X158.909 Y103.335 E0.07675
G1 X159.203 Y104.475 E0.01364
G1 X159.154 Y105.288 E0.00944
G1 X158.902 Y106.071 E0.00953
G1 X155.640 Y111.721 E0.07555
G1 X155.088 Y112.331 E0.00953
G1 X154.408 Y112.780 E0.00944
G1 X154.110 Y112.863 E0.00358
M204 S1000
G1 X153.227 Y113.096 F10800.000
M204 S500
G1 F1200.000
G1 X146.720 Y113.096 E0.07535
G1 X145.586 Y112.780 E0.01364
G1 X144.906 Y112.331 E0.00944
G1 X144.354 Y111.721 E0.00953
G1 X141.084 Y106.058 E0.07572
G1 X140.791 Y104.918 E0.01364
G1 X140.839 Y104.105 E0.00944
G1 X141.092 Y103.322 E0.00953
G1 X144.354 Y97.672 E0.07555
G1 X144.779 Y97.202 E0.00734
M204 S1000
G1 X145.186 Y97.210 F10800.000
M204 S500
G1 F1200.000
G1 X145.074 Y97.284 E0.00156
G1 X144.588 Y97.824 E0.00841
G1 X141.340 Y103.448 E0.07521
G1 X141.116 Y104.139 E0.00841
G1 X141.070 Y104.913 E0.00897
G1 X141.335 Y105.935 E0.01223
G1 X144.588 Y111.569 E0.07533
G1 X145.074 Y112.109 E0.00841
G1 X145.721 Y112.535 E0.00897
G1 X146.739 Y112.817 E0.01223
G1 X153.255 Y112.817 E0.07546
G1 X153.493 Y112.751 E0.00286
M204 S1000
G1 F8640.000
G1 X153.255 Y112.817 E-0.05700
G1 X150.210 Y112.817 E-0.70300
G1 E-0.04000 F2100.00000
G1 Z0.700 F10800.000
G1 X154.455 Y112.415
G1 Z0.100
G1 E0.80000 F2100.00000
M204 S500
G1 F1200.000
G1 X154.920 Y112.109 E0.00644
G1 X155.406 Y111.569 E0.00841
G1 X158.653 Y105.945 E0.07521
G1 X158.877 Y105.254 E0.00841
G1 X158.924 Y104.480 E0.00897
G1 X158.659 Y103.458 E0.01223
G1 X155.378 Y97.785 E0.07588
G1 X154.652 Y97.076 E0.01175
G1 X153.980 Y96.736 E0.00872
G1 X153.291 Y96.581 E0.00818
M204 S1000
M204 S500
G1 X146.740 Y96.576 E0.07586
G1 X146.357 Y96.681 E0.00460
M204 S1000
G1 F8640.000
G1 X146.740 Y96.576 E-0.09165
G1 X149.635 Y96.578 E-0.66835
G1 E-0.04000 F2100.00000
G1 Z0.700 F10800.000
G1 X153.770 Y112.392
G1 Z0.100
G1 E0.80000 F2100.00000
M204 S500
G1 F1200.000
G1 X153.236 Y112.539 E0.00641
G1 X146.757 Y112.539 E0.07503
G1 X145.854 Y112.290 E0.01085
G1 X145.267 Y111.908 E0.00811
G1 X144.821 Y111.417 E0.00768
G1 X141.585 Y105.812 E0.07494
G1 X141.349 Y104.906 E0.01085
G1 X141.387 Y104.206 E0.00811
G1 X141.589 Y103.574 E0.00768
G1 X144.821 Y97.976 E0.07486
G1 X145.267 Y97.485 E0.00768
G1 X145.673 Y97.221 E0.00561
M204 S1000
G1 F8640.000
G1 X145.267 Y97.485 E-0.11187
G1 X144.821 Y97.976 E-0.15320
G1 X143.749 Y99.833 E-0.49492
G1 E-0.04000 F2100.00000
G1 Z0.700 F10800.000
G1 X154.069 Y112.005
G1 Z0.100
G1 E0.80000 F2100.00000
M204 S500
G1 F1200.000
G1 X154.007 Y112.044 E0.00085
G1 X153.218 Y112.260 E0.00948
G1 X146.776 Y112.260 E0.07460
G1 X145.987 Y112.044 E0.00948
G1 X145.460 Y111.706 E0.00725
G1 X145.055 Y111.264 E0.00694
G1 X141.836 Y105.689 E0.07455
G1 X141.628 Y104.897 E0.00948
G1 X141.658 Y104.272 E0.00725
G1 X141.838 Y103.700 E0.00694
G1 X145.055 Y98.129 E0.07450
G1 X145.460 Y97.687 E0.00694
G1 X145.987 Y97.349 E0.00725
G1 X146.398 Y97.236 E0.00494
M204 S1000
G1 X146.117 Y97.595 F10800.000
M204 S500
G1 F1200.000
G1 X146.795 Y97.411 E0.00813
G1 X153.241 Y97.416 E0.07464
G1 X153.734 Y97.536 E0.00588
G1 X154.208 Y97.787 E0.00621
G1 X154.705 Y98.280 E0.00811
G1 X157.907 Y103.827 E0.07417
G1 X158.086 Y104.506 E0.00812
G1 X158.064 Y105.057 E0.00639
G1 X157.906 Y105.567 E0.00619
G1 X154.706 Y111.111 E0.07413
G1 X154.342 Y111.502 E0.00619
G1 X153.876 Y111.798 E0.00639
G1 X153.199 Y111.982 E0.00812
G1 X146.794 Y111.982 E0.07417
G1 X146.117 Y111.798 E0.00812
G1 X145.651 Y111.502 E0.00639
G1 X145.288 Y111.111 E0.00619
G1 X142.086 Y105.566 E0.07415
G1 X141.907 Y104.887 E0.00812
G1 X141.930 Y104.336 E0.00639
G1 X142.087 Y103.826 E0.00619
G1 X145.288 Y98.282 E0.07413
G1 X145.651 Y97.891 E0.00619
G1 X146.086 Y97.615 E0.00595
M204 S1000
G1 X146.233 Y97.852 F10800.000
M204 S500
G1 F1200.000
G1 X146.813 Y97.690 E0.00698
G1 X153.223 Y97.695 E0.07423
G1 X153.649 Y97.802 E0.00509
G1 X154.058 Y98.022 E0.00538
G1 X154.473 Y98.436 E0.00678
G1 X157.657 Y103.951 E0.07375
G1 X157.807 Y104.518 E0.00679
G1 X157.792 Y104.995 E0.00553
G1 X157.657 Y105.442 E0.00541
G1 X154.473 Y110.957 E0.07374
G1 X154.153 Y111.298 E0.00541
G1 X153.747 Y111.550 E0.00553
G1 X153.181 Y111.703 E0.00679
G1 X146.813 Y111.703 E0.07375
G1 X146.246 Y111.550 E0.00679
G1 X145.841 Y111.298 E0.00553
G1 X145.521 Y110.957 E0.00541
G1 X142.337 Y105.442 E0.07374
G1 X142.186 Y104.875 E0.00679
G1 X142.202 Y104.398 E0.00553
G1 X142.337 Y103.951 E0.00541
G1 X145.521 Y98.436 E0.07374
G1 X145.841 Y98.095 E0.00541
G1 X146.201 Y97.871 E0.00491
M204 S1000
G1 X146.374 Y98.091 F10800.000
M204 S500
G1 F1200.000
G1 X146.831 Y97.968 E0.00549
G1 X153.204 Y97.973 E0.07380
G1 X153.560 Y98.066 E0.00426
G1 X153.906 Y98.256 E0.00456
G1 X154.241 Y98.591 E0.00548
G1 X157.406 Y104.074 E0.07333
G1 X157.529 Y104.531 E0.00548
G1 X157.519 Y104.935 E0.00468
G1 X157.407 Y105.318 E0.00462
G1 X154.240 Y110.803 E0.07334
G1 X153.965 Y111.092 E0.00462
G1 X153.620 Y111.302 E0.00468
G1 X153.163 Y111.425 E0.00548
G1 X146.831 Y111.425 E0.07333
G1 X146.374 Y111.302 E0.00548
G1 X146.029 Y111.092 E0.00468
G1 X145.753 Y110.803 E0.00462
G1 X142.587 Y105.319 E0.07333
G1 X142.465 Y104.861 E0.00548
G1 X142.475 Y104.458 E0.00468
G1 X142.587 Y104.075 E0.00462
G1 X145.753 Y98.590 E0.07334
G1 X146.029 Y98.301 E0.00462
G1 X146.342 Y98.111 E0.00424
M204 S1000
G1 X146.484 Y98.350 F10800.000
M204 S500
G1 F1200.000
G1 X146.849 Y98.247 E0.00440
G1 X153.184 Y98.252 E0.07336
G1 X153.469 Y98.330 E0.00341
G1 X153.752 Y98.489 E0.00376
G1 X154.008 Y98.746 E0.00420
G1 X157.156 Y104.198 E0.07290
G1 X157.250 Y104.548 E0.00420
G1 X157.246 Y104.879 E0.00383
G1 X157.157 Y105.194 E0.00380
G1 X154.008 Y110.648 E0.07293
G1 X153.779 Y110.883 E0.00380
G1 X153.495 Y111.052 E0.00383
G1 X153.145 Y111.146 E0.00420
G1 X146.849 Y111.146 E0.07290
G1 X146.499 Y111.052 E0.00420
G1 X146.215 Y110.883 E0.00383
G1 X145.986 Y110.648 E0.00380
G1 X142.837 Y105.195 E0.07291
G1 X142.744 Y104.845 E0.00420
G1 X142.748 Y104.514 E0.00383
G1 X142.837 Y104.199 E0.00380
G1 X145.986 Y98.745 E0.07293
G1 X146.215 Y98.510 E0.00380
G1 X146.452 Y98.369 E0.00319
M204 S1000
G1 X146.621 Y98.591 F10800.000
M204 S500
G1 F1200.000
G1 X146.867 Y98.525 E0.00295
G1 X153.163 Y98.530 E0.07291
G1 X153.373 Y98.592 E0.00253
G1 X153.596 Y98.721 E0.00299
G1 X153.776 Y98.901 E0.00295
G1 X156.906 Y104.321 E0.07248
G1 X156.972 Y104.567 E0.00295
G1 X156.972 Y104.826 E0.00300
G1 X156.906 Y105.072 E0.00295
G1 X153.776 Y110.492 E0.07248
G1 X153.596 Y110.672 E0.00295
G1 X153.372 Y110.802 E0.00300
G1 X153.126 Y110.868 E0.00295
G1 X146.867 Y110.868 E0.07248
G1 X146.621 Y110.802 E0.00295
G1 X146.397 Y110.672 E0.00300
G1 X146.217 Y110.492 E0.00295
G1 X143.088 Y105.072 E0.07248
M73 Q1 S90
G1 X143.022 Y104.826 E0.00295
G1 X143.022 Y104.567 E0.00300
G1 X143.088 Y104.321 E0.00295
G1 X146.217 Y98.901 E0.07248
M73 P1 R89
G1 X146.397 Y98.721 E0.00295
G1 X146.589 Y98.610 E0.00256
M204 S1000
G1 F8640.000
G1 X146.867 Y98.525 E-0.06719
G1 X149.868 Y98.528 E-0.69281
G1 E-0.04000 F2100.00000
G1 Z0.700 F10800.000
G1 X153.247 Y98.841
G1 Z0.100
G1 E0.80000 F2100.00000
M204 S500
G1 F1200.000
G1 X153.441 Y98.953 E0.00260
G1 X153.544 Y99.056 E0.00169
G1 X156.655 Y104.445 E0.07206
G1 X156.693 Y104.585 E0.00169
G1 X156.693 Y104.808 E0.00258
G1 X156.655 Y104.948 E0.00169
G1 X153.544 Y110.337 E0.07206
G1 X153.441 Y110.440 E0.00169
G1 X153.249 Y110.551 E0.00258
G1 X153.108 Y110.589 E0.00169
G1 X146.886 Y110.589 E0.07206
G1 X146.745 Y110.551 E0.00169
G1 X146.552 Y110.440 E0.00258
G1 X146.449 Y110.337 E0.00169
G1 X143.338 Y104.948 E0.07206
G1 X143.300 Y104.808 E0.00169
G1 X143.300 Y104.585 E0.00258
G1 X143.338 Y104.445 E0.00169
G1 X146.449 Y99.056 E0.07206
G1 X146.552 Y98.953 E0.00169
G1 X146.745 Y98.842 E0.00258
G1 X146.885 Y98.804 E0.00169
G1 X153.142 Y98.809 E0.07245
G1 X153.211 Y98.830 E0.00083
M204 S1000
G1 X153.125 Y99.092 F10800.000
M204 S500
G1 F1200.000
G1 X153.312 Y99.211 E0.00257
G1 X156.405 Y104.568 E0.07164
G1 X156.405 Y104.825 E0.00297
G1 X153.312 Y110.182 E0.07164
