; generated by PrusaSlicer 2.2.0 on 2020-08-19 at 19:17:32 UTC

; 

; external perimeters extrusion width = 0.25mm
; perimeters extrusion width = 0.25mm
; infill extrusion width = 0.25mm
; solid infill extrusion width = 0.25mm
; top infill extrusion width = 0.25mm
; first layer extrusion width = 0.30mm

M73 P0 R33
M73 Q0 S34
M201 X1000 Y1000 Z200 E5000 ; sets maximum accelerations, mm/sec^2
M203 X200 Y200 Z12 E120 ; sets maximum feedrates, mm/sec
M204 P1250 R1250 T1250 ; sets acceleration (P, T) and retract acceleration (R), mm/sec^2
M205 X8.00 Y8.00 Z0.40 E4.50 ; sets the jerk limits, mm/sec
M205 S0 T0 ; sets the minimum extruding and travel feed rate, mm/sec
M107
M862.3 P "MK3S" ; printer model check
M862.1 P0.25 ; nozzle diameter check
M115 U3.9.0 ; tell printer latest fw version
G90 ; use absolute coordinates
M83 ; extruder relative mode
M104 S215 ; set extruder temp
M140 S60 ; set bed temp
M190 S60 ; wait for bed temp
M109 S215 ; wait for extruder temp
G28 W ; home all without mesh bed level
G80 ; mesh bed leveling
G1 Y-3.0 F1000.0 ; go outside print area
G92 E0.0
G1 X60.0 E9.0 F1000.0 ; intro line
M73 Q0 S33
M73 P0 R33
G1 X100.0 E12.5 F1000.0 ; intro line
G92 E0.0
M221 S95
G21 ; set units to millimeters
G90 ; use absolute coordinates
M83 ; use relative distances for extrusion
M900 K0.06 ; Filament gcode LA 1.5
M900 K30 ; Filament gcode LA 1.0
;BEFORE_LAYER_CHANGE
G92 E0.0
;0.1


G1 E-0.80000 F2100.00000
G1 Z0.600 F10800.000
;AFTER_LAYER_CHANGE
;0.1
G1 X102.596 Y100.004
G1 Z0.100
G1 E0.80000 F2100.00000
M204 S500
G1 F1200.000
G1 X103.534 Y99.116 E0.01495
G1 X104.608 Y98.439 E0.01471
G1 X105.853 Y97.965 E0.01542
G1 X107.112 Y97.755 E0.01478
G1 X131.795 Y96.314 E0.28633
G1 X137.959 Y96.310 E0.07138
G1 X138.672 Y96.394 E0.00831
G1 X139.350 Y96.641 E0.00836
G1 X139.951 Y97.034 E0.00831
G1 X140.447 Y97.558 E0.00836
G1 X143.714 Y103.178 E0.07528
G1 X143.960 Y103.806 E0.00781
G1 X144.065 Y104.472 E0.00781
G1 X144.003 Y105.257 E0.00911
G1 X143.744 Y106.005 E0.00916
G1 X140.581 Y111.489 E0.07332
G1 X140.223 Y111.950 E0.00676
G1 X139.789 Y112.333 E0.00671
G1 X139.292 Y112.629 E0.00671
G1 X138.744 Y112.829 E0.00676
G1 X137.998 Y112.931 E0.00871
G1 X131.754 Y112.924 E0.07231
G1 X106.380 Y110.760 E0.29490
G1 X105.450 Y110.519 E0.01113
G1 X104.573 Y110.150 E0.01102
G1 X103.756 Y109.655 E0.01107
G1 X103.045 Y109.071 E0.01065
G1 X102.456 Y108.435 E0.01003
G1 X101.916 Y107.660 E0.01094
G1 X101.504 Y106.845 E0.01058
G1 X101.202 Y105.950 E0.01094
G1 X101.001 Y104.650 E0.01523
G1 X101.060 Y103.358 E0.01498
G1 X101.376 Y102.090 E0.01513
G1 X101.908 Y100.960 E0.01446
G1 X102.574 Y100.035 E0.01321
M204 S1000
G1 X102.935 Y100.043 F10800.000
M204 S500
G1 F1200.000
G1 X103.860 Y99.220 E0.01434
G1 X104.939 Y98.589 E0.01448
G1 X106.067 Y98.198 E0.01382
G1 X107.134 Y98.033 E0.01250
G1 X131.810 Y96.592 E0.28624
G1 X137.959 Y96.589 E0.07120
G1 X138.614 Y96.667 E0.00764
G1 X139.234 Y96.894 E0.00764
G1 X139.784 Y97.258 E0.00764
G1 X140.238 Y97.743 E0.00769
G1 X143.464 Y103.301 E0.07443
G1 X143.692 Y103.881 E0.00721
G1 X143.787 Y104.496 E0.00721
G1 X143.727 Y105.216 E0.00836
G1 X143.489 Y105.893 E0.00831
G1 X140.348 Y111.338 E0.07279
G1 X140.019 Y111.761 E0.00621
G1 X139.616 Y112.114 E0.00621
G1 X139.154 Y112.386 E0.00621
G1 X138.653 Y112.565 E0.00616
G1 X137.987 Y112.652 E0.00779
G1 X131.772 Y112.646 E0.07198
G1 X106.438 Y110.488 E0.29443
G1 X105.538 Y110.255 E0.01076
G1 X104.698 Y109.901 E0.01057
G1 X103.911 Y109.424 E0.01065
G1 X103.228 Y108.861 E0.01025
G1 X102.609 Y108.180 E0.01066
G1 X102.149 Y107.507 E0.00944
G1 X101.749 Y106.708 E0.01035
G1 X101.462 Y105.842 E0.01057
G1 X101.278 Y104.621 E0.01429
G1 X101.339 Y103.376 E0.01444
G1 X101.645 Y102.167 E0.01444
G1 X102.181 Y101.046 E0.01439
G1 X102.912 Y100.073 E0.01410
M204 S1000
G1 F8640.000
G1 X103.860 Y99.220 E-0.29441
G1 X104.939 Y98.589 E-0.28872
G1 X105.663 Y98.338 E-0.17687
G1 E-0.04000 F2100.00000
G1 Z0.700 F10800.000
G1 X139.445 Y111.894
G1 Z0.100
G1 E0.80000 F2100.00000
M204 S500
G1 F1200.000
G1 X138.564 Y112.300 E0.01123
G1 X137.981 Y112.374 E0.00680
G1 X131.789 Y112.368 E0.07171
G1 X106.515 Y110.218 E0.29374
G1 X105.635 Y109.994 E0.01052
G1 X104.830 Y109.655 E0.01011
G1 X104.074 Y109.197 E0.01023
G1 X103.418 Y108.657 E0.00985
G1 X102.827 Y108.006 E0.01018
G1 X102.387 Y107.362 E0.00903
G1 X102.003 Y106.594 E0.00994
G1 X101.727 Y105.754 E0.01025
G1 X101.555 Y104.584 E0.01369
G1 X101.618 Y103.395 E0.01378
G1 X101.910 Y102.253 E0.01365
G1 X102.424 Y101.182 E0.01375
G1 X103.143 Y100.228 E0.01384
G1 X104.031 Y99.439 E0.01375
G1 X105.064 Y98.838 E0.01384
G1 X106.155 Y98.463 E0.01336
G1 X107.148 Y98.311 E0.01164
G1 X131.825 Y96.871 E0.28625
G1 X137.958 Y96.867 E0.07102
G1 X138.557 Y96.939 E0.00698
G1 X139.119 Y97.148 E0.00694
G1 X139.617 Y97.481 E0.00694
G1 X140.023 Y97.921 E0.00694
G1 X143.215 Y103.425 E0.07368
G1 X143.424 Y103.957 E0.00662
G1 X143.510 Y104.522 E0.00662
G1 X143.452 Y105.170 E0.00753
G1 X143.233 Y105.782 E0.00753
G1 X140.112 Y111.190 E0.07231
G1 X139.471 Y111.867 E0.01080
M204 S1000
G1 X139.275 Y111.673 F10800.000
M204 S500
G1 F1200.000
G1 X138.479 Y112.034 E0.01013
G1 X137.972 Y112.095 E0.00590
G1 X131.805 Y112.090 E0.07142
G1 X106.570 Y109.945 E0.29329
G1 X105.741 Y109.736 E0.00990
G1 X104.958 Y109.408 E0.00983
G1 X104.236 Y108.971 E0.00976
G1 X103.608 Y108.453 E0.00944
G1 X103.042 Y107.829 E0.00975
G1 X102.625 Y107.217 E0.00858
G1 X102.261 Y106.488 E0.00944
G1 X101.993 Y105.671 E0.00995
G1 X101.834 Y104.570 E0.01289
G1 X101.894 Y103.433 E0.01319
G1 X102.175 Y102.337 E0.01309
G1 X102.666 Y101.319 E0.01309
G1 X103.351 Y100.413 E0.01316
G1 X104.202 Y99.660 E0.01316
G1 X105.188 Y99.088 E0.01320
G1 X106.256 Y98.725 E0.01307
G1 X107.167 Y98.589 E0.01066
G1 X131.840 Y97.149 E0.28622
G1 X137.958 Y97.146 E0.07085
G1 X138.494 Y97.211 E0.00625
G1 X138.999 Y97.399 E0.00625
G1 X139.446 Y97.702 E0.00625
G1 X139.809 Y98.101 E0.00625
G1 X142.966 Y103.550 E0.07293
G1 X143.155 Y104.031 E0.00599
G1 X143.232 Y104.543 E0.00599
G1 X143.178 Y105.120 E0.00672
G1 X142.979 Y105.665 E0.00672
G1 X139.879 Y111.036 E0.07181
G1 X139.301 Y111.646 E0.00974
M204 S1000
G1 F8640.000
G1 X138.479 Y112.034 E-0.21000
G1 X137.972 Y112.095 E-0.11772
G1 X136.100 Y112.094 E-0.43228
G1 E-0.04000 F2100.00000
G1 Z0.700 F10800.000
G1 X128.560 Y96.364
G1 Z0.100
G1 E0.80000 F2100.00000
M204 S500
G1 F1200.000
G1 X128.910 Y95.969 E0.00610
G1 X129.860 Y95.319 E0.01333
G1 X131.585 Y94.828 E0.02077
G1 X138.341 Y94.833 E0.07824
M204 S1000
M204 S500
G1 X139.432 Y95.062 E0.01290
G1 X140.469 Y95.562 E0.01333
G1 X141.575 Y96.583 E0.01743
G1 X145.119 Y102.642 E0.08129
G1 X145.557 Y104.380 E0.02075
G1 X145.477 Y105.492 E0.01291
G1 X145.137 Y106.549 E0.01285
G1 X141.768 Y112.404 E0.07823
G1 X140.999 Y113.272 E0.01343
G1 X140.049 Y113.922 E0.01333
G1 X138.326 Y114.413 E0.02074
G1 X131.583 Y114.413 E0.07809
G1 X130.028 Y113.999 E0.01864
G1 X128.998 Y113.348 E0.01411
G1 X128.488 Y112.786 E0.00879
M204 S1000
G1 F8640.000
G1 X128.998 Y113.348 E-0.17531
G1 X130.028 Y113.999 E-0.28142
G1 X131.297 Y114.337 E-0.30326
G1 E-0.04000 F2100.00000
G1 Z0.700 F10800.000
G1 X127.677 Y111.600
G1 Z0.100
G1 E0.80000 F2100.00000
M204 S500
G1 F1200.000
G1 X124.788 Y106.596 E0.06690
G1 X124.352 Y104.861 E0.02072
G1 X124.432 Y103.749 E0.01291
G1 X124.771 Y102.692 E0.01285
G1 X127.744 Y97.527 E0.06901
M204 S1000
G1 X128.076 Y97.508 F10800.000
M204 S500
G1 F1200.000
G1 X125.032 Y102.791 E0.07062
G1 X124.703 Y103.818 E0.01248
G1 X124.631 Y104.858 E0.01207
G1 X125.039 Y106.474 E0.01930
G1 X128.015 Y111.628 E0.06893
M204 S1000
G1 F8640.000
G1 X126.369 Y108.778 E-0.76000
G1 E-0.04000 F2100.00000
G1 Z0.700 F10800.000
G1 X128.889 Y112.820
G1 Z0.100
G1 E0.80000 F2100.00000
M204 S500
G1 F1200.000
G1 X129.164 Y113.123 E0.00474
G1 X130.121 Y113.736 E0.01316
G1 X131.602 Y114.134 E0.01775
G1 X138.307 Y114.134 E0.07765
G1 X139.911 Y113.680 E0.01930
G1 X140.828 Y113.052 E0.01287
G1 X141.533 Y112.253 E0.01235
G1 X144.877 Y106.450 E0.07756
G1 X145.206 Y105.423 E0.01248
G1 X145.278 Y104.383 E0.01207
G1 X144.869 Y102.765 E0.01932
G1 X141.370 Y96.772 E0.08036
G1 X140.328 Y95.803 E0.01648
G1 X139.357 Y95.331 E0.01250
G1 X138.326 Y95.112 E0.01220
G1 X131.604 Y95.107 E0.07785
M204 S1000
M204 S500
G1 X129.998 Y95.561 E0.01932
G1 X129.081 Y96.189 E0.01287
G1 X128.947 Y96.341 E0.00235
M204 S1000
G1 X129.383 Y96.316 F10800.000
M204 S500
G1 F1200.000
G1 X130.136 Y95.805 E0.01054
G1 X131.623 Y95.385 E0.01789
G1 X138.311 Y95.390 E0.07745
M204 S1000
M204 S500
G1 X139.281 Y95.600 E0.01149
G1 X140.186 Y96.044 E0.01167
G1 X141.165 Y96.961 E0.01554
G1 X144.618 Y102.889 E0.07944
G1 X144.999 Y104.386 E0.01789
G1 X144.930 Y105.387 E0.01162
G1 X144.617 Y106.349 E0.01172
G1 X141.299 Y112.101 E0.07689
G1 X140.631 Y112.854 E0.01166
G1 X139.773 Y113.436 E0.01201
G1 X138.288 Y113.855 E0.01787
G1 X131.621 Y113.855 E0.07721
G1 X130.216 Y113.473 E0.01686
G1 X129.331 Y112.900 E0.01221
G1 X129.290 Y112.854 E0.00072
M204 S1000
G1 F8640.000
G1 X129.331 Y112.900 E-0.01429
G1 X130.216 Y113.473 E-0.24344
G1 X131.621 Y113.855 E-0.33614
G1 X132.340 Y113.855 E-0.16613
G1 E-0.04000 F2100.00000
G1 Z0.700 F10800.000
G1 X128.353 Y111.657
G1 Z0.100
G1 E0.80000 F2100.00000
M204 S500
G1 F1200.000
G1 X125.290 Y106.351 E0.07095
G1 X124.910 Y104.855 E0.01787
G1 X124.979 Y103.854 E0.01162
G1 X125.292 Y102.892 E0.01172
G1 X128.409 Y97.488 E0.07223
M204 S1000
G1 X128.741 Y97.469 F10800.000
M204 S500
G1 F1200.000
G1 X125.552 Y102.993 E0.07386
G1 X125.256 Y103.891 E0.01096
G1 X125.190 Y104.852 E0.01115
G1 X125.541 Y106.228 E0.01645
G1 X128.692 Y111.686 E0.07298
M204 S1000
G1 F8640.000
G1 X127.046 Y108.835 E-0.76000
G1 E-0.04000 F2100.00000
G1 Z0.700 F10800.000
G1 X129.840 Y112.901
G1 Z0.100
G1 E0.80000 F2100.00000
M204 S500
G1 F1200.000
G1 X130.312 Y113.211 E0.00654
G1 X131.640 Y113.577 E0.01595
G1 X138.269 Y113.577 E0.07677
G1 X139.636 Y113.193 E0.01645
G1 X140.435 Y112.655 E0.01115
G1 X141.065 Y111.949 E0.01096
G1 X144.357 Y106.248 E0.07623
G1 X144.653 Y105.350 E0.01096
G1 X144.719 Y104.389 E0.01115
G1 X144.368 Y103.012 E0.01646
G1 X140.959 Y97.150 E0.07853
G1 X140.043 Y96.284 E0.01459
G1 X139.204 Y95.868 E0.01084
G1 X138.296 Y95.669 E0.01077
G1 X131.642 Y95.664 E0.07706
M204 S1000
M204 S500
G1 X130.273 Y96.048 E0.01647
G1 X129.922 Y96.284 E0.00489
M204 S1000
G1 X130.574 Y96.246 F10800.000
M204 S500
G1 F1200.000
G1 X131.660 Y95.942 E0.01306
G1 X138.280 Y95.948 E0.07666
M204 S1000
M204 S500
G1 X139.127 Y96.136 E0.01004
G1 X139.900 Y96.523 E0.01001
G1 X140.752 Y97.337 E0.01365
G1 X144.117 Y103.135 E0.07764
G1 X144.440 Y104.393 E0.01504
G1 X144.383 Y105.280 E0.01029
G1 X144.108 Y106.122 E0.01025
G1 X140.831 Y111.797 E0.07589
G1 X140.240 Y112.456 E0.01025
G1 X139.500 Y112.949 E0.01029
G1 X138.250 Y113.298 E0.01504
G1 X131.659 Y113.298 E0.07633
G1 X130.412 Y112.950 E0.01499
M204 S1000
G1 F8640.000
G1 X131.659 Y113.298 E-0.29897
G1 X133.655 Y113.298 E-0.46103
G1 E-0.04000 F2100.00000
G1 Z0.700 F10800.000
G1 X129.030 Y111.715
G1 Z0.100
G1 E0.80000 F2100.00000
M204 S500
G1 F1200.000
G1 X125.791 Y106.105 E0.07501
G1 X125.469 Y104.848 E0.01504
G1 X125.526 Y103.961 E0.01029
G1 X125.801 Y103.119 E0.01025
G1 X129.074 Y97.450 E0.07581
M204 S1000
G1 F8640.000
G1 X127.428 Y100.300 E-0.76000
G1 E-0.04000 F2100.00000
G1 Z0.700 F10800.000
G1 X129.403 Y111.746
G1 Z0.100
G1 E0.80000 F2100.00000
M204 S500
G1 F1200.000
G1 X129.311 Y111.645 E0.00158
G1 X126.042 Y105.982 E0.07572
G1 X125.748 Y104.842 E0.01364
G1 X125.797 Y104.029 E0.00944
G1 X126.049 Y103.246 E0.00953
G1 X129.311 Y97.596 E0.07555
G1 X129.464 Y97.427 E0.00264
M204 S1000
G1 F8640.000
G1 X129.311 Y97.596 E-0.05265
G1 X127.780 Y100.249 E-0.70735
G1 E-0.04000 F2100.00000
G1 Z0.700 F10800.000
G1 X129.804 Y111.780
G1 Z0.100
G1 E0.80000 F2100.00000
M204 S500
G1 F1200.000
G1 X129.545 Y111.493 E0.00448
G1 X126.293 Y105.859 E0.07533
G1 X126.028 Y104.837 E0.01223
G1 X126.074 Y104.063 E0.00897
G1 X126.298 Y103.372 E0.00841
G1 X129.545 Y97.748 E0.07521
G1 X129.855 Y97.404 E0.00536
M204 S1000
G1 F8640.000
G1 X129.545 Y97.748 E-0.10686
G1 X128.131 Y100.198 E-0.65314
G1 E-0.04000 F2100.00000
G1 Z0.700 F10800.000
G1 X130.210 Y111.815
G1 Z0.100
G1 E0.80000 F2100.00000
M204 S500
G1 F1200.000
G1 X129.779 Y111.341 E0.00742
G1 X126.543 Y105.736 E0.07494
G1 X126.307 Y104.830 E0.01085
G1 X126.345 Y104.130 E0.00811
G1 X126.547 Y103.498 E0.00768
G1 X129.779 Y97.900 E0.07486
G1 X130.225 Y97.409 E0.00768
G1 X130.270 Y97.380 E0.00062
M204 S1000
G1 F8640.000
G1 X130.225 Y97.409 E-0.01246
G1 X129.779 Y97.900 E-0.15320
G1 X128.492 Y100.129 E-0.59434
G1 E-0.04000 F2100.00000
G1 Z0.700 F10800.000
G1 X130.781 Y111.863
G1 Z0.100
G1 E0.80000 F2100.00000
M204 S500
G1 F1200.000
G1 X130.418 Y111.630 E0.00501
G1 X130.012 Y111.188 E0.00694
G1 X126.794 Y105.613 E0.07455
G1 X126.586 Y104.821 E0.00948
G1 X126.616 Y104.196 E0.00725
G1 X126.796 Y103.624 E0.00694
G1 X130.012 Y98.053 E0.07450
G1 X130.418 Y97.611 E0.00694
G1 X130.828 Y97.347 E0.00565
M204 S1000
G1 X131.753 Y97.335 F10800.000
M204 S500
G1 F1200.000
G1 X138.198 Y97.340 E0.07464
G1 X138.692 Y97.460 E0.00588
G1 X139.166 Y97.711 E0.00621
G1 X139.662 Y98.204 E0.00811
G1 X142.865 Y103.751 E0.07417
G1 X143.044 Y104.430 E0.00812
G1 X143.021 Y104.981 E0.00639
G1 X142.864 Y105.491 E0.00619
G1 X139.663 Y111.035 E0.07413
G1 X139.300 Y111.426 E0.00619
G1 X138.841 Y111.717 E0.00629
M204 S1000
G1 X138.827 Y111.724 F10800.000
M204 S500
G1 F1200.000
G1 X138.157 Y111.906 E0.00804
G1 X131.752 Y111.906 E0.07417
G1 X131.075 Y111.722 E0.00812
G1 X130.609 Y111.426 E0.00639
G1 X130.245 Y111.035 E0.00619
G1 X127.044 Y105.490 E0.07415
G1 X126.865 Y104.811 E0.00812
G1 X126.888 Y104.260 E0.00639
G1 X127.045 Y103.750 E0.00619
G1 X130.245 Y98.206 E0.07413
G1 X130.609 Y97.815 E0.00619
G1 X131.075 Y97.519 E0.00639
G1 X131.753 Y97.335 E0.00813
M204 S1000
G1 X131.204 Y97.767 F10800.000
M204 S500
G1 F1200.000
G1 X131.771 Y97.614 E0.00680
G1 X138.181 Y97.619 E0.07423
G1 X138.606 Y97.726 E0.00509
G1 X139.015 Y97.946 E0.00538
G1 X139.430 Y98.360 E0.00678
G1 X142.614 Y103.875 E0.07375
G1 X142.765 Y104.442 E0.00679
G1 X142.749 Y104.919 E0.00553
G1 X142.614 Y105.366 E0.00541
G1 X139.430 Y110.881 E0.07374
G1 X139.110 Y111.222 E0.00541
G1 X138.705 Y111.474 E0.00553
G1 X138.139 Y111.627 E0.00679
G1 X131.770 Y111.627 E0.07375
G1 X131.204 Y111.474 E0.00679
G1 X130.799 Y111.222 E0.00553
G1 X130.478 Y110.881 E0.00541
G1 X127.294 Y105.366 E0.07374
G1 X127.144 Y104.799 E0.00679
G1 X127.160 Y104.322 E0.00553
G1 X127.295 Y103.875 E0.00541
G1 X130.478 Y98.360 E0.07374
G1 X130.799 Y98.019 E0.00541
G1 X131.172 Y97.787 E0.00510
M204 S1000
G1 X131.317 Y98.024 F10800.000
M204 S500
G1 F1200.000
G1 X131.789 Y97.892 E0.00567
G1 X138.162 Y97.897 E0.07380
G1 X138.518 Y97.990 E0.00426
G1 X138.863 Y98.180 E0.00456
G1 X139.198 Y98.515 E0.00548
G1 X142.364 Y103.998 E0.07333
G1 X142.486 Y104.456 E0.00548
G1 X142.477 Y104.859 E0.00468
G1 X142.365 Y105.242 E0.00462
G1 X139.198 Y110.727 E0.07334
G1 X138.922 Y111.016 E0.00462
G1 X138.577 Y111.226 E0.00468
G1 X138.120 Y111.349 E0.00548
G1 X131.788 Y111.349 E0.07333
G1 X131.331 Y111.226 E0.00548
G1 X130.987 Y111.016 E0.00468
G1 X130.711 Y110.727 E0.00462
G1 X127.545 Y105.243 E0.07333
G1 X127.423 Y104.785 E0.00548
G1 X127.432 Y104.382 E0.00468
G1 X127.544 Y103.999 E0.00462
G1 X130.711 Y98.514 E0.07334
G1 X130.987 Y98.225 E0.00462
G1 X131.285 Y98.044 E0.00405
M204 S1000
G1 X131.457 Y98.265 F10800.000
M204 S500
G1 F1200.000
G1 X131.807 Y98.171 E0.00420
G1 X138.142 Y98.176 E0.07336
G1 X138.426 Y98.254 E0.00341
G1 X138.710 Y98.413 E0.00376
G1 X138.966 Y98.670 E0.00420
G1 X142.114 Y104.122 E0.07290
G1 X142.208 Y104.472 E0.00420
G1 X142.203 Y104.803 E0.00383
G1 X142.114 Y105.118 E0.00380
G1 X138.966 Y110.572 E0.07293
G1 X138.737 Y110.807 E0.00380
G1 X138.452 Y110.976 E0.00383
G1 X138.102 Y111.070 E0.00420
G1 X131.807 Y111.070 E0.07290
G1 X131.457 Y110.976 E0.00420
G1 X131.172 Y110.807 E0.00383
G1 X130.943 Y110.572 E0.00380
G1 X127.795 Y105.119 E0.07291
G1 X127.701 Y104.769 E0.00420
G1 X127.706 Y104.438 E0.00383
G1 X127.795 Y104.123 E0.00380
G1 X130.943 Y98.669 E0.07293
