; generated by PrusaSlicer 2.2.0 on 2020-08-18 at 22:41:20 UTC

; 

; external perimeters extrusion width = 0.25mm
; perimeters extrusion width = 0.25mm
; infill extrusion width = 0.25mm
; solid infill extrusion width = 0.25mm
; top infill extrusion width = 0.25mm
; support material extrusion width = 0.20mm
; first layer extrusion width = 0.30mm

M73 P0 R9
M73 Q0 S9
M201 X1000 Y1000 Z200 E5000 ; sets maximum accelerations, mm/sec^2
M203 X200 Y200 Z12 E120 ; sets maximum feedrates, mm/sec
M204 P1250 R1250 T1250 ; sets acceleration (P, T) and retract acceleration (R), mm/sec^2
M205 X8.00 Y8.00 Z0.40 E4.50 ; sets the jerk limits, mm/sec
M205 S0 T0 ; sets the minimum extruding and travel feed rate, mm/sec
M107
M862.3 P "MK3S" ; printer model check
M862.1 P0.25 ; nozzle diameter check
M115 U3.9.0 ; tell printer latest fw version
G90 ; use absolute coordinates
M83 ; extruder relative mode
M104 S215 ; set extruder temp
M140 S60 ; set bed temp
M190 S60 ; wait for bed temp
M109 S215 ; wait for extruder temp
G28 W ; home all without mesh bed level
G80 ; mesh bed leveling
G1 Y-3.0 F1000.0 ; go outside print area
G92 E0.0
G1 X60.0 E9.0 F1000.0 ; intro line
M73 Q0 S9
M73 P0 R9
G1 X100.0 E12.5 F1000.0 ; intro line
G92 E0.0
M221 S95
G21 ; set units to millimeters
G90 ; use absolute coordinates
M83 ; use relative distances for extrusion
M900 K0.06 ; Filament gcode LA 1.5
M900 K30 ; Filament gcode LA 1.0
;BEFORE_LAYER_CHANGE
G92 E0.0
;0.1


G1 E-0.80000 F2100.00000
G1 Z0.600 F10800.000
;AFTER_LAYER_CHANGE
;0.1
G1 X119.716 Y99.352
G1 Z0.100
G1 E0.80000 F2100.00000
M204 S500
G1 F1200.000
G1 X120.981 Y98.339 E0.01877
G1 X122.416 Y97.596 E0.01871
G1 X123.990 Y97.143 E0.01897
G1 X125.560 Y97.011 E0.01824
G1 X127.209 Y97.197 E0.01922
G1 X128.715 Y97.680 E0.01832
G1 X130.024 Y98.388 E0.01724
G1 X131.277 Y99.413 E0.01874
G1 X132.280 Y100.626 E0.01823
G1 X133.060 Y102.069 E0.01900
G1 X133.535 Y103.624 E0.01882
G1 X133.695 Y105.292 E0.01941
G1 X133.527 Y106.892 E0.01863
G1 X133.049 Y108.435 E0.01871
G1 X132.269 Y109.869 E0.01890
G1 X131.227 Y111.115 E0.01881
G1 X129.948 Y112.141 E0.01899
G1 X128.508 Y112.885 E0.01877
G1 X126.920 Y113.339 E0.01912
G1 X125.324 Y113.467 E0.01854
G1 X123.683 Y113.273 E0.01913
G1 X122.156 Y112.774 E0.01861
G1 X120.775 Y112.000 E0.01833
G1 X119.536 Y110.944 E0.01886
G1 X118.541 Y109.684 E0.01859
G1 X117.810 Y108.256 E0.01857
G1 X117.377 Y106.754 E0.01810
G1 X117.237 Y105.176 E0.01835
G1 X117.407 Y103.574 E0.01865
G1 X117.896 Y102.011 E0.01897
G1 X118.668 Y100.600 E0.01862
G1 X119.692 Y99.381 E0.01843
M204 S1000
G1 X119.903 Y99.558 F10800.000
M204 S500
G1 F1200.000
G1 X121.131 Y98.574 E0.01822
G1 X122.517 Y97.855 E0.01809
G1 X124.042 Y97.417 E0.01837
G1 X125.560 Y97.289 E0.01764
G1 X127.152 Y97.470 E0.01856
G1 X128.607 Y97.936 E0.01769
G1 X129.870 Y98.620 E0.01662
G1 X131.081 Y99.611 E0.01813
G1 X132.048 Y100.780 E0.01757
G1 X132.806 Y102.184 E0.01847
G1 X133.263 Y103.686 E0.01819
G1 X133.416 Y105.312 E0.01892
G1 X133.252 Y106.846 E0.01786
G1 X132.787 Y108.339 E0.01811
G1 X132.034 Y109.720 E0.01821
G1 X131.013 Y110.935 E0.01839
G1 X129.789 Y111.912 E0.01812
G1 X128.397 Y112.630 E0.01814
G1 X126.867 Y113.065 E0.01842
G1 X125.327 Y113.189 E0.01789
G1 X123.738 Y113.000 E0.01854
G1 X122.266 Y112.518 E0.01793
G1 X120.882 Y111.736 E0.01840
G1 X119.735 Y110.750 E0.01752
G1 X118.819 Y109.602 E0.01700
G1 X118.107 Y108.249 E0.01771
G1 X117.667 Y106.787 E0.01768
G1 X117.515 Y105.176 E0.01874
G1 X117.680 Y103.631 E0.01799
G1 X118.153 Y102.120 E0.01834
G1 X118.897 Y100.759 E0.01796
G1 X119.879 Y99.587 E0.01771
M204 S1000
G1 X120.092 Y99.765 F10800.000
M204 S500
G1 F1200.000
G1 X121.284 Y98.807 E0.01772
G1 X122.623 Y98.113 E0.01746
G1 X124.094 Y97.691 E0.01772
G1 X125.560 Y97.568 E0.01704
G1 X127.096 Y97.742 E0.01791
G1 X128.500 Y98.193 E0.01707
G1 X129.715 Y98.852 E0.01601
G1 X130.882 Y99.806 E0.01746
G1 X131.816 Y100.934 E0.01696
G1 X132.548 Y102.289 E0.01782
G1 X132.990 Y103.739 E0.01755
G1 X133.137 Y105.310 E0.01828
G1 X132.980 Y106.790 E0.01723
G1 X132.531 Y108.229 E0.01745
G1 X131.805 Y109.561 E0.01757
G1 X130.819 Y110.735 E0.01776
G1 X129.635 Y111.680 E0.01753
G1 X128.276 Y112.378 E0.01769
G1 X126.815 Y112.792 E0.01759
G1 X125.331 Y112.910 E0.01724
G1 X123.797 Y112.728 E0.01789
G1 X122.376 Y112.262 E0.01732
G1 X121.042 Y111.507 E0.01775
G1 X119.934 Y110.555 E0.01691
G1 X119.055 Y109.453 E0.01633
G1 X118.367 Y108.148 E0.01708
G1 X117.940 Y106.732 E0.01712
G1 X117.794 Y105.181 E0.01804
G1 X117.952 Y103.687 E0.01739
G1 X118.407 Y102.233 E0.01765
G1 X119.126 Y100.918 E0.01736
G1 X120.068 Y99.794 E0.01698
M204 S1000
G1 X120.280 Y99.972 F10800.000
M204 S500
G1 F1200.000
G1 X121.438 Y99.039 E0.01722
G1 X122.725 Y98.372 E0.01678
G1 X124.145 Y97.964 E0.01712
G1 X125.559 Y97.847 E0.01643
G1 X127.039 Y98.015 E0.01725
G1 X128.392 Y98.450 E0.01645
G1 X129.556 Y99.081 E0.01534
G1 X130.683 Y100.001 E0.01685
G1 X131.584 Y101.089 E0.01635
G1 X132.288 Y102.390 E0.01713
G1 X132.715 Y103.787 E0.01692
G1 X132.859 Y105.303 E0.01764
G1 X132.708 Y106.730 E0.01661
G1 X132.275 Y108.119 E0.01685
G1 X131.576 Y109.403 E0.01693
G1 X130.626 Y110.534 E0.01711
G1 X129.485 Y111.445 E0.01691
G1 X128.173 Y112.119 E0.01709
G1 X126.763 Y112.518 E0.01697
G1 X125.334 Y112.632 E0.01659
G1 X123.856 Y112.455 E0.01724
G1 X122.486 Y112.006 E0.01671
G1 X121.198 Y111.276 E0.01714
G1 X120.134 Y110.361 E0.01625
G1 X119.287 Y109.300 E0.01572
G1 X118.626 Y108.045 E0.01642
G1 X118.214 Y106.682 E0.01649
G1 X118.072 Y105.186 E0.01740
G1 X118.225 Y103.744 E0.01679
G1 X118.664 Y102.342 E0.01701
G1 X119.356 Y101.076 E0.01670
G1 X120.256 Y100.001 E0.01624
M204 S1000
G1 X120.469 Y100.178 F10800.000
M204 S500
G1 F1200.000
G1 X121.588 Y99.274 E0.01667
G1 X122.831 Y98.630 E0.01621
G1 X124.197 Y98.238 E0.01646
G1 X125.559 Y98.125 E0.01583
G1 X127.016 Y98.295 E0.01698
G1 X128.349 Y98.734 E0.01625
G1 X129.576 Y99.432 E0.01634
G1 X130.603 Y100.317 E0.01570
G1 X131.377 Y101.280 E0.01431
G1 X132.045 Y102.532 E0.01643
G1 X132.443 Y103.849 E0.01593
G1 X132.580 Y105.301 E0.01690
G1 X132.435 Y106.674 E0.01598
G1 X132.019 Y108.009 E0.01620
G1 X131.344 Y109.248 E0.01634
G1 X130.433 Y110.333 E0.01640
G1 X129.335 Y111.211 E0.01628
G1 X128.078 Y111.857 E0.01637
G1 X126.719 Y112.243 E0.01636
G1 X125.348 Y112.353 E0.01593
G1 X123.924 Y112.185 E0.01660
G1 X122.612 Y111.757 E0.01599
G1 X121.423 Y111.094 E0.01576
G1 X120.371 Y110.205 E0.01595
G1 X119.529 Y109.161 E0.01554
G1 X118.890 Y107.956 E0.01579
G1 X118.485 Y106.617 E0.01620
G1 X118.351 Y105.190 E0.01659
G1 X118.497 Y103.805 E0.01614
G1 X118.920 Y102.450 E0.01643
G1 X119.585 Y101.234 E0.01605
G1 X120.445 Y100.207 E0.01551
M204 S1000
G1 X120.657 Y100.385 F10800.000
M204 S500
G1 F1200.000
G1 X121.742 Y99.506 E0.01617
G1 X122.937 Y98.888 E0.01558
G1 X124.249 Y98.512 E0.01581
G1 X125.559 Y98.404 E0.01522
G1 X126.957 Y98.567 E0.01630
G1 X128.239 Y98.990 E0.01563
G1 X129.428 Y99.668 E0.01584
G1 X130.404 Y100.512 E0.01494
G1 X131.153 Y101.445 E0.01386
G1 X131.785 Y102.632 E0.01557
G1 X132.170 Y103.901 E0.01536
G1 X132.302 Y105.295 E0.01621
G1 X132.162 Y106.618 E0.01541
G1 X131.764 Y107.899 E0.01553
G1 X131.115 Y109.090 E0.01571
G1 X130.241 Y110.131 E0.01574
G1 X129.184 Y110.976 E0.01567
G1 X127.974 Y111.599 E0.01576
G1 X126.671 Y111.969 E0.01569
G1 X125.355 Y112.075 E0.01529
G1 X123.983 Y111.913 E0.01599
G1 X122.721 Y111.500 E0.01538
G1 X121.581 Y110.864 E0.01512
G1 X120.570 Y110.010 E0.01533
G1 X119.761 Y109.007 E0.01492
G1 X119.149 Y107.852 E0.01513
G1 X118.759 Y106.563 E0.01559
G1 X118.629 Y105.195 E0.01592
G1 X118.770 Y103.861 E0.01553
G1 X119.177 Y102.559 E0.01580
G1 X119.817 Y101.389 E0.01545
G1 X120.633 Y100.414 E0.01472
M204 S1000
G1 X120.846 Y100.592 F10800.000
M204 S500
G1 F1200.000
G1 X121.895 Y99.739 E0.01566
G1 X123.052 Y99.141 E0.01508
G1 X124.304 Y98.785 E0.01508
G1 X125.559 Y98.682 E0.01458
G1 X126.887 Y98.837 E0.01548
G1 X128.070 Y99.221 E0.01441
G1 X129.092 Y99.775 E0.01346
G1 X130.093 Y100.593 E0.01497
G1 X130.899 Y101.567 E0.01464
G1 X131.515 Y102.707 E0.01500
G1 X131.895 Y103.947 E0.01502
G1 X132.023 Y105.293 E0.01566
G1 X131.891 Y106.552 E0.01466
G1 X131.507 Y107.790 E0.01501
G1 X130.885 Y108.932 E0.01506
G1 X130.048 Y109.931 E0.01509
G1 X129.033 Y110.742 E0.01505
G1 X127.874 Y111.339 E0.01510
G1 X126.618 Y111.695 E0.01511
G1 X125.358 Y111.796 E0.01464
G1 X124.042 Y111.641 E0.01534
G1 X122.830 Y111.244 E0.01477
G1 X121.738 Y110.635 E0.01448
G1 X120.767 Y109.814 E0.01473
G1 X119.996 Y108.856 E0.01424
G1 X119.407 Y107.748 E0.01453
G1 X119.032 Y106.510 E0.01498
G1 X118.908 Y105.195 E0.01529
G1 X119.042 Y103.917 E0.01488
G1 X119.433 Y102.668 E0.01516
G1 X120.046 Y101.547 E0.01480
G1 X120.822 Y100.621 E0.01399
M204 S1000
G1 X121.034 Y100.799 F10800.000
M204 S500
G1 F1200.000
G1 X122.049 Y99.971 E0.01516
G1 X123.156 Y99.400 E0.01443
G1 X124.368 Y99.056 E0.01459
G1 X125.559 Y98.961 E0.01383
G1 X126.633 Y99.070 E0.01251
G1 X127.818 Y99.417 E0.01430
G1 X128.896 Y99.980 E0.01408
G1 X129.894 Y100.787 E0.01486
G1 X130.669 Y101.724 E0.01408
G1 X131.263 Y102.825 E0.01449
G1 X131.623 Y104.004 E0.01428
G1 X131.745 Y105.291 E0.01497
G1 X131.619 Y106.493 E0.01400
G1 X131.251 Y107.681 E0.01439
G1 X130.656 Y108.775 E0.01442
G1 X129.852 Y109.733 E0.01448
G1 X128.879 Y110.510 E0.01442
G1 X127.772 Y111.080 E0.01442
G1 X126.570 Y111.421 E0.01447
G1 X125.361 Y111.518 E0.01404
G1 X124.097 Y111.368 E0.01474
G1 X122.940 Y110.988 E0.01410
G1 X121.896 Y110.405 E0.01384
G1 X120.967 Y109.619 E0.01410
G1 X120.228 Y108.702 E0.01364
G1 X119.664 Y107.640 E0.01392
G1 X119.306 Y106.457 E0.01432
G1 X119.187 Y105.188 E0.01475
G1 X119.313 Y103.985 E0.01401
G1 X119.684 Y102.788 E0.01451
G1 X120.274 Y101.707 E0.01426
G1 X121.010 Y100.827 E0.01329
M204 S1000
G1 F8640.000
G1 X122.049 Y99.971 E-0.31080
G1 X123.156 Y99.400 E-0.28767
G1 X123.829 Y99.209 E-0.16153
G1 E-0.04000 F2100.00000
G1 Z0.700 F10800.000
G1 X119.577 Y98.976
G1 Z0.100
G1 E0.80000 F2100.00000
M204 S500
G1 F1200.000
G1 X120.221 Y98.428 E0.00980
G1 X120.926 Y97.939 E0.00993
G1 X121.680 Y97.521 E0.00998
G1 X122.457 Y97.186 E0.00980
G1 X123.264 Y96.929 E0.00981
G1 X124.104 Y96.751 E0.00994
G1 X124.961 Y96.657 E0.00998
G1 X125.821 Y96.650 E0.00995
G1 X126.643 Y96.723 E0.00956
G1 X127.449 Y96.874 E0.00950
G1 X128.245 Y97.104 E0.00959
G1 X129.012 Y97.408 E0.00956
G1 X129.743 Y97.782 E0.00951
G1 X130.437 Y98.226 E0.00954
G1 X131.087 Y98.735 E0.00957
G1 X131.681 Y99.298 E0.00947
G1 X132.638 Y100.496 E0.01776
G1 X133.081 Y101.249 E0.01012
G1 X133.447 Y102.045 E0.01014
G1 X133.723 Y102.846 E0.00982
G1 X133.920 Y103.679 E0.00991
G1 X134.033 Y104.532 E0.00996
G1 X134.061 Y105.402 E0.01009
G1 X134.003 Y106.250 E0.00984
G1 X133.860 Y107.093 E0.00991
G1 X133.637 Y107.911 E0.00982
G1 X133.330 Y108.713 E0.00994
G1 X132.943 Y109.481 E0.00995
G1 X132.482 Y110.206 E0.00995
G1 X131.952 Y110.881 E0.00994
G1 X131.363 Y111.495 E0.00986
G1 X130.722 Y112.042 E0.00976
G1 X130.023 Y112.529 E0.00986
G1 X129.271 Y112.948 E0.00998
G1 X128.485 Y113.289 E0.00992
G1 X127.665 Y113.550 E0.00996
G1 X126.827 Y113.727 E0.00991
G1 X125.977 Y113.821 E0.00991
G1 X125.120 Y113.829 E0.00993
G1 X124.290 Y113.755 E0.00965
G1 X123.471 Y113.601 E0.00964
G1 X122.672 Y113.369 E0.00964
G1 X121.904 Y113.063 E0.00958
G1 X121.162 Y112.681 E0.00966
G1 X120.466 Y112.233 E0.00959
G1 X119.815 Y111.718 E0.00961
G1 X119.220 Y111.146 E0.00956
G1 X118.687 Y110.527 E0.00946
G1 X118.214 Y109.856 E0.00951
G1 X117.804 Y109.137 E0.00958
G1 X117.468 Y108.391 E0.00948
G1 X117.212 Y107.642 E0.00917
G1 X117.013 Y106.806 E0.00996
G1 X116.898 Y105.942 E0.01008
G1 X116.871 Y105.075 E0.01005
G1 X116.929 Y104.222 E0.00990
G1 X117.070 Y103.392 E0.00975
G1 X117.296 Y102.563 E0.00995
G1 X117.605 Y101.758 E0.00999
G1 X117.985 Y101.003 E0.00979
G1 X118.449 Y100.273 E0.01001
G1 X118.980 Y99.597 E0.00996
G1 X119.551 Y99.003 E0.00954
M204 S1000
G1 F8640.000
G1 X120.221 Y98.428 E-0.20393
G1 X120.926 Y97.939 E-0.19806
G1 X121.680 Y97.521 E-0.19903
G1 X122.312 Y97.249 E-0.15897
G1 E-0.04000 F2100.00000
G1 Z0.700 F10800.000
G1 X121.258 Y100.836
G1 Z0.100
G1 E0.80000 F2100.00000
M204 S500
G1 F1200.000
G1 X121.710 Y100.445 E0.00692
G1 X122.207 Y100.095 E0.00704
G1 X122.739 Y99.794 E0.00709
G1 X123.288 Y99.552 E0.00694
G1 X123.870 Y99.362 E0.00709
G1 X124.464 Y99.232 E0.00704
G1 X125.071 Y99.162 E0.00708
G1 X125.669 Y99.153 E0.00693
G1 X126.263 Y99.202 E0.00690
G1 X126.844 Y99.307 E0.00685
G1 X127.420 Y99.472 E0.00694
G1 X127.975 Y99.690 E0.00690
G1 X128.501 Y99.960 E0.00685
G1 X129.002 Y100.281 E0.00690
G1 X129.462 Y100.644 E0.00678
G1 X129.890 Y101.054 E0.00687
G1 X130.526 Y101.850 E0.01180
G1 X130.841 Y102.377 E0.00710
G1 X131.101 Y102.930 E0.00709
G1 X131.301 Y103.496 E0.00694
G1 X131.445 Y104.084 E0.00702
G1 X131.531 Y104.686 E0.00704
G1 X131.555 Y105.306 E0.00718
G1 X131.519 Y105.905 E0.00695
G1 X131.423 Y106.504 E0.00703
G1 X131.270 Y107.084 E0.00694
G1 X131.057 Y107.654 E0.00705
G1 X130.788 Y108.200 E0.00705
G1 X130.465 Y108.717 E0.00705
G1 X130.093 Y109.198 E0.00704
G1 X129.679 Y109.637 E0.00699
G1 X129.229 Y110.027 E0.00690
G1 X128.737 Y110.376 E0.00698
G1 X128.206 Y110.678 E0.00708
G1 X127.652 Y110.923 E0.00702
G1 X127.072 Y111.113 E0.00706
G1 X126.480 Y111.244 E0.00702
G1 X125.878 Y111.315 E0.00701
G1 X125.269 Y111.326 E0.00706
G1 X124.682 Y111.278 E0.00682
G1 X124.089 Y111.171 E0.00698
G1 X123.521 Y111.010 E0.00683
G1 X122.976 Y110.797 E0.00678
G1 X122.449 Y110.529 E0.00685
G1 X121.944 Y110.207 E0.00694
G1 X121.481 Y109.844 E0.00681
G1 X121.051 Y109.434 E0.00688
G1 X120.644 Y108.959 E0.00725
G1 X120.314 Y108.486 E0.00667
G1 X120.014 Y107.953 E0.00709
G1 X119.818 Y107.515 E0.00555
G1 X119.633 Y106.991 E0.00643
G1 X119.487 Y106.399 E0.00706
G1 X119.401 Y105.788 E0.00715
G1 X119.376 Y105.173 E0.00713
G1 X119.413 Y104.568 E0.00702
G1 X119.507 Y103.981 E0.00688
G1 X119.663 Y103.392 E0.00705
G1 X119.878 Y102.818 E0.00709
G1 X120.141 Y102.283 E0.00691
G1 X120.466 Y101.762 E0.00711
G1 X120.838 Y101.281 E0.00705
G1 X121.233 Y100.864 E0.00665
M204 S1000
G1 X121.435 Y101.054 F10800.000
M204 S500
G1 F1200.000
G1 X121.877 Y100.669 E0.00680
G1 X122.350 Y100.334 E0.00671
G1 X122.858 Y100.046 E0.00677
G1 X123.381 Y99.815 E0.00662
G1 X123.937 Y99.633 E0.00677
G1 X124.503 Y99.508 E0.00672
G1 X125.083 Y99.440 E0.00676
G1 X125.653 Y99.431 E0.00661
G1 X126.220 Y99.477 E0.00658
G1 X126.775 Y99.577 E0.00653
G1 X127.325 Y99.733 E0.00662
G1 X127.854 Y99.941 E0.00658
G1 X128.357 Y100.198 E0.00653
G1 X128.835 Y100.504 E0.00658
G1 X129.284 Y100.858 E0.00662
G1 X129.691 Y101.249 E0.00653
G1 X130.292 Y102.001 E0.01116
G1 X130.592 Y102.502 E0.00676
G1 X130.841 Y103.030 E0.00676
G1 X131.032 Y103.569 E0.00662
G1 X131.170 Y104.131 E0.00670
G1 X131.253 Y104.705 E0.00672
G1 X131.277 Y105.296 E0.00685
G1 X131.243 Y105.868 E0.00663
G1 X131.152 Y106.440 E0.00671
G1 X131.006 Y106.993 E0.00662
G1 X130.804 Y107.537 E0.00672
G1 X130.547 Y108.059 E0.00673
G1 X130.240 Y108.552 E0.00673
G1 X129.886 Y109.012 E0.00672
G1 X129.491 Y109.431 E0.00667
G1 X129.062 Y109.804 E0.00658
G1 X128.593 Y110.137 E0.00666
G1 X128.086 Y110.426 E0.00675
G1 X127.558 Y110.661 E0.00670
G1 X127.005 Y110.843 E0.00674
G1 X126.440 Y110.968 E0.00670
G1 X125.866 Y111.037 E0.00669
G1 X125.284 Y111.048 E0.00674
G1 X124.724 Y111.003 E0.00651
G1 X124.158 Y110.901 E0.00666
G1 X123.617 Y110.748 E0.00651
G1 X123.084 Y110.540 E0.00662
G1 X122.581 Y110.284 E0.00654
G1 X122.100 Y109.976 E0.00662
G1 X121.659 Y109.630 E0.00650
G1 X121.249 Y109.238 E0.00657
G1 X120.860 Y108.783 E0.00692
G1 X120.547 Y108.333 E0.00635
G1 X120.260 Y107.822 E0.00678
G1 X120.079 Y107.417 E0.00514
G1 X119.902 Y106.918 E0.00614
G1 X119.762 Y106.353 E0.00674
G1 X119.679 Y105.770 E0.00682
G1 X119.655 Y105.182 E0.00680
G1 X119.689 Y104.605 E0.00670
G1 X119.779 Y104.045 E0.00656
G1 X119.926 Y103.483 E0.00673
G1 X120.131 Y102.935 E0.00677
G1 X120.382 Y102.424 E0.00659
G1 X120.691 Y101.927 E0.00678
G1 X121.045 Y101.467 E0.00673
G1 X121.409 Y101.082 E0.00613
M204 S1000
G1 X121.611 Y101.272 F10800.000
M204 S500
G1 F1200.000
G1 X122.044 Y100.892 E0.00667
